{
  "compressionlevel": -1,
  "infinite": false,
  "orientation": "orthogonal",
  "renderorder": "right-down",
  "tiledversion": "1.10.2",
  "tileheight": 32,
  "tilewidth": 32,
  "type": "map",
  "version": "1.10",
  "width": 40,
  "height": 28,
  "tilesets": [
    {
      "columns": 8,
      "firstgid": 1,
      "image": "tiles.png",
      "imagewidth": 256,
      "imageheight": 32,
      "margin": 0,
      "name": "tiles",
      "spacing": 0,
      "tilecount": 8,
      "tileheight": 32,
      "tilewidth": 32
    }
  ],
  "nextlayerid": 9,
  "nextobjectid": 10,
  "layers": [
    {
      "data": [
        1,
        1,
        1,
        1,
        1,
        1,
        1,
        1,
        1,
        1,
        1,
        1,
        1,
        1,
        1,
        1,
        1,
        1,
        1,
        1,
        1,
        1,
        1,
        1,
        1,
        1,
        1,
        1,
        1,
        1,
        1,
        1,
        1,
        1,
        1,
        1,
        1,
        1,
        1,
        1,
        1,
        3,
        2,
        2,
        3,
        2,
        2,
        3,
        2,
        2,
        3,
        2,
        2,
        3,
        2,
        2,
        3,
        2,
        2,
        4,
        4,
        2,
        3,
        2,
        2,
        3,
        2,
        2,
        3,
        2,
        2,
        3,
        2,
        2,
        3,
        2,
        2,
        3,
        2,
        1,
        1,
        3,
        2,
        2,
        3,
        2,
        2,
        3,
        2,
        2,
        3,
        2,
        2,
        3,
        2,
        2,
        3,
        2,
        2,
        4,
        4,
        2,
        3,
        2,
        2,
        3,
        2,
        2,
        3,
        2,
        2,
        3,
        2,
        2,
        3,
        2,
        2,
        3,
        2,
        1,
        1,
        3,
        2,
        2,
        3,
        2,
        2,
        3,
        2,
        2,
        3,
        2,
        2,
        3,
        2,
        2,
        3,
        2,
        2,
        4,
        4,
        2,
        3,
        2,
        2,
        3,
        2,
        2,
        3,
        2,
        2,
        3,
        2,
        2,
        3,
        2,
        2,
        3,
        2,
        1,
        1,
        3,
        2,
        2,
        3,
        2,
        2,
        3,
        2,
        2,
        3,
        2,
        2,
        3,
        2,
        2,
        3,
        2,
        2,
        4,
        4,
        2,
        3,
        2,
        2,
        3,
        2,
        2,
        3,
        2,
        2,
        3,
        2,
        2,
        3,
        2,
        2,
        3,
        2,
        1,
        1,
        3,
        2,
        2,
        3,
        2,
        2,
        3,
        2,
        2,
        3,
        2,
        2,
        3,
        2,
        2,
        3,
        2,
        2,
        4,
        4,
        2,
        3,
        2,
        2,
        3,
        2,
        2,
        3,
        2,
        2,
        3,
        2,
        2,
        3,
        2,
        2,
        3,
        2,
        1,
        1,
        3,
        2,
        2,
        3,
        2,
        2,
        3,
        2,
        2,
        3,
        2,
        2,
        3,
        2,
        2,
        3,
        2,
        2,
        4,
        4,
        2,
        3,
        2,
        2,
        3,
        2,
        2,
        3,
        2,
        2,
        3,
        2,
        2,
        3,
        2,
        2,
        3,
        2,
        1,
        1,
        3,
        2,
        2,
        3,
        2,
        2,
        3,
        2,
        2,
        3,
        2,
        2,
        3,
        2,
        2,
        3,
        2,
        2,
        4,
        4,
        2,
        3,
        2,
        2,
        3,
        2,
        2,
        3,
        2,
        2,
        3,
        2,
        2,
        3,
        2,
        2,
        3,
        2,
        1,
        1,
        3,
        2,
        2,
        3,
        2,
        2,
        3,
        2,
        2,
        3,
        2,
        2,
        3,
        2,
        2,
        3,
        5,
        5,
        5,
        5,
        2,
        3,
        2,
        2,
        3,
        2,
        2,
        3,
        2,
        2,
        3,
        2,
        2,
        3,
        2,
        2,
        3,
        2,
        1,
        1,
        3,
        2,
        2,
        3,
        2,
        2,
        3,
        2,
        2,
        3,
        2,
        2,
        3,
        2,
        2,
        3,
        5,
        5,
        5,
        5,
        2,
        3,
        2,
        2,
        3,
        2,
        2,
        3,
        2,
        2,
        3,
        2,
        2,
        3,
        2,
        2,
        3,
        2,
        1,
        1,
        3,
        2,
        2,
        3,
        5,
        5,
        5,
        2,
        2,
        3,
        2,
        2,
        3,
        2,
        2,
        3,
        5,
        5,
        5,
        5,
        2,
        3,
        2,
        5,
        5,
        5,
        5,
        3,
        2,
        2,
        3,
        5,
        5,
        5,
        2,
        2,
        3,
        2,
        1,
        1,
        3,
        2,
        2,
        3,
        5,
        5,
        5,
        2,
        2,
        3,
        2,
        2,
        3,
        2,
        2,
        3,
        7,
        7,
        7,
        7,
        7,
        7,
        2,
        5,
        5,
        5,
        5,
        3,
        2,
        2,
        3,
        5,
        5,
        5,
        2,
        2,
        3,
        2,
        1,
        1,
        3,
        2,
        2,
        3,
        5,
        5,
        5,
        2,
        2,
        3,
        2,
        2,
        3,
        2,
        2,
        3,
        7,
        7,
        7,
        7,
        7,
        7,
        2,
        5,
        5,
        5,
        5,
        3,
        2,
        2,
        3,
        5,
        5,
        5,
        2,
        2,
        3,
        2,
        1,
        1,
        4,
        4,
        4,
        4,
        5,
        5,
        5,
        4,
        4,
        4,
        4,
        4,
        4,
        4,
        4,
        4,
        7,
        7,
        7,
        7,
        7,
        7,
        4,
        4,
        4,
        4,
        4,
        4,
        4,
        4,
        4,
        5,
        5,
        5,
        4,
        4,
        4,
        4,
        1,
        1,
        4,
        4,
        4,
        4,
        4,
        4,
        4,
        4,
        4,
        4,
        4,
        4,
        4,
        4,
        4,
        4,
        7,
        7,
        7,
        7,
        7,
        7,
        4,
        4,
        4,
        4,
        4,
        4,
        4,
        4,
        4,
        4,
        4,
        4,
        4,
        4,
        4,
        4,
        1,
        1,
        3,
        2,
        2,
        3,
        2,
        2,
        3,
        2,
        2,
        3,
        2,
        2,
        5,
        5,
        5,
        3,
        7,
        7,
        7,
        7,
        7,
        7,
        2,
        5,
        5,
        5,
        5,
        3,
        2,
        2,
        3,
        2,
        2,
        3,
        2,
        2,
        3,
        2,
        1,
        1,
        3,
        2,
        2,
        3,
        2,
        2,
        3,
        2,
        2,
        3,
        2,
        2,
        5,
        5,
        5,
        3,
        7,
        7,
        7,
        7,
        7,
        7,
        2,
        5,
        5,
        5,
        5,
        3,
        2,
        2,
        3,
        2,
        2,
        3,
        2,
        2,
        3,
        2,
        1,
        1,
        3,
        2,
        2,
        3,
        2,
        2,
        3,
        2,
        2,
        3,
        2,
        2,
        5,
        5,
        5,
        3,
        2,
        2,
        4,
        4,
        2,
        3,
        2,
        5,
        5,
        5,
        5,
        3,
        2,
        2,
        3,
        2,
        2,
        3,
        2,
        2,
        3,
        2,
        1,
        1,
        3,
        2,
        2,
        3,
        2,
        2,
        3,
        5,
        5,
        5,
        5,
        2,
        3,
        2,
        2,
        3,
        2,
        2,
        4,
        4,
        2,
        3,
        2,
        2,
        3,
        2,
        2,
        5,
        5,
        5,
        5,
        2,
        2,
        3,
        2,
        2,
        3,
        2,
        1,
        1,
        3,
        2,
        2,
        3,
        2,
        2,
        3,
        5,
        5,
        5,
        5,
        2,
        3,
        2,
        2,
        3,
        2,
        2,
        4,
        4,
        2,
        3,
        2,
        2,
        3,
        2,
        2,
        5,
        5,
        5,
        5,
        2,
        2,
        3,
        2,
        2,
        3,
        2,
        1,
        1,
        3,
        2,
        2,
        3,
        2,
        2,
        3,
        5,
        5,
        5,
        5,
        2,
        3,
        2,
        2,
        3,
        2,
        2,
        4,
        4,
        2,
        3,
        2,
        2,
        3,
        2,
        2,
        5,
        5,
        5,
        5,
        2,
        2,
        3,
        2,
        2,
        3,
        2,
        1,
        1,
        3,
        2,
        2,
        3,
        2,
        2,
        3,
        2,
        2,
        3,
        2,
        2,
        3,
        2,
        2,
        3,
        2,
        2,
        4,
        4,
        2,
        3,
        2,
        2,
        3,
        2,
        2,
        3,
        2,
        2,
        3,
        2,
        2,
        3,
        2,
        2,
        3,
        2,
        1,
        1,
        3,
        2,
        2,
        3,
        2,
        2,
        3,
        2,
        2,
        3,
        2,
        2,
        3,
        2,
        2,
        3,
        2,
        2,
        4,
        4,
        2,
        3,
        2,
        2,
        3,
        2,
        2,
        3,
        2,
        2,
        3,
        2,
        2,
        3,
        2,
        2,
        3,
        2,
        1,
        1,
        3,
        2,
        2,
        3,
        2,
        2,
        3,
        2,
        2,
        3,
        2,
        2,
        3,
        2,
        2,
        3,
        2,
        2,
        4,
        4,
        2,
        3,
        2,
        2,
        3,
        2,
        2,
        3,
        2,
        2,
        3,
        2,
        2,
        3,
        2,
        2,
        3,
        2,
        1,
        1,
        3,
        2,
        2,
        3,
        2,
        2,
        3,
        2,
        2,
        3,
        2,
        2,
        3,
        2,
        2,
        3,
        2,
        2,
        4,
        4,
        2,
        3,
        2,
        2,
        3,
        2,
        2,
        3,
        2,
        2,
        3,
        2,
        2,
        3,
        2,
        2,
        3,
        2,
        1,
        1,
        3,
        2,
        2,
        3,
        2,
        2,
        3,
        2,
        2,
        3,
        2,
        2,
        3,
        2,
        2,
        3,
        2,
        8,
        8,
        8,
        8,
        3,
        2,
        2,
        3,
        2,
        2,
        3,
        2,
        2,
        3,
        2,
        2,
        3,
        2,
        2,
        3,
        2,
        1,
        1,
        3,
        2,
        2,
        3,
        2,
        2,
        3,
        2,
        2,
        3,
        2,
        2,
        3,
        2,
        2,
        3,
        2,
        8,
        8,
        8,
        8,
        3,
        2,
        2,
        3,
        2,
        2,
        3,
        2,
        2,
        3,
        2,
        2,
        3,
        2,
        2,
        3,
        2,
        1,
        1,
        1,
        1,
        1,
        1,
        1,
        1,
        1,
        1,
        1,
        1,
        1,
        1,
        1,
        1,
        1,
        1,
        1,
        1,
        1,
        1,
        1,
        1,
        1,
        1,
        1,
        1,
        1,
        1,
        1,
        1,
        1,
        1,
        1,
        1,
        1,
        1,
        1,
        1,
        1
      ],
      "height": 28,
      "id": 1,
      "name": "ground",
      "opacity": 1,
      "type": "tilelayer",
      "visible": true,
      "width": 40,
      "x": 0,
      "y": 0
    },
    {
      "data": [
        0,
        0,
        0,
        0,
        0,
        0,
        0,
        0,
        0,
        0,
        0,
        0,
        0,
        0,
        0,
        0,
        0,
        0,
        0,
        0,
        0,
        0,
        0,
        0,
        0,
        0,
        0,
        0,
        0,
        0,
        0,
        0,
        0,
        0,
        0,
        0,
        0,
        0,
        0,
        0,
        0,
        0,
        0,
        0,
        0,
        0,
        0,
        0,
        0,
        0,
        0,
        0,
        0,
        0,
        0,
        0,
        0,
        0,
        0,
        0,
        0,
        0,
        0,
        0,
        0,
        0,
        0,
        0,
        0,
        0,
        0,
        0,
        0,
        0,
        0,
        0,
        0,
        0,
        0,
        0,
        0,
        0,
        6,
        6,
        6,
        6,
        6,
        6,
        6,
        6,
        6,
        6,
        6,
        0,
        0,
        0,
        0,
        0,
        0,
        0,
        0,
        0,
        0,
        0,
        0,
        0,
        0,
        6,
        6,
        6,
        6,
        6,
        6,
        6,
        6,
        6,
        6,
        6,
        0,
        0,
        0,
        0,
        6,
        6,
        6,
        6,
        6,
        6,
        6,
        6,
        6,
        6,
        6,
        0,
        0,
        0,
        0,
        0,
        0,
        0,
        0,
        0,
        0,
        0,
        0,
        0,
        0,
        6,
        6,
        6,
        6,
        6,
        6,
        6,
        6,
        6,
        6,
        6,
        0,
        0,
        0,
        0,
        6,
        6,
        6,
        6,
        6,
        6,
        6,
        6,
        6,
        6,
        6,
        0,
        0,
        0,
        0,
        0,
        0,
        0,
        0,
        0,
        0,
        0,
        0,
        0,
        0,
        6,
        6,
        6,
        6,
        6,
        6,
        6,
        6,
        6,
        6,
        6,
        0,
        0,
        0,
        0,
        6,
        6,
        6,
        6,
        6,
        6,
        6,
        6,
        6,
        6,
        6,
        0,
        0,
        0,
        0,
        0,
        0,
        0,
        0,
        0,
        0,
        0,
        0,
        0,
        0,
        6,
        6,
        6,
        6,
        6,
        6,
        6,
        6,
        6,
        6,
        6,
        0,
        0,
        0,
        0,
        6,
        6,
        6,
        0,
        0,
        0,
        0,
        0,
        0,
        0,
        0,
        0,
        0,
        0,
        0,
        0,
        0,
        0,
        0,
        0,
        0,
        0,
        0,
        0,
        0,
        0,
        0,
        0,
        0,
        0,
        0,
        0,
        0,
        6,
        6,
        6,
        0,
        0,
        0,
        0,
        6,
        6,
        6,
        0,
        0,
        0,
        0,
        0,
        0,
        0,
        0,
        0,
        0,
        0,
        0,
        0,
        0,
        0,
        0,
        0,
        0,
        0,
        0,
        0,
        0,
        0,
        0,
        0,
        0,
        0,
        0,
        0,
        0,
        6,
        6,
        6,
        0,
        0,
        0,
        0,
        6,
        6,
        6,
        0,
        0,
        0,
        0,
        0,
        0,
        0,
        0,
        0,
        0,
        0,
        0,
        0,
        0,
        0,
        0,
        0,
        0,
        0,
        0,
        0,
        0,
        0,
        0,
        0,
        0,
        0,
        0,
        0,
        0,
        6,
        6,
        6,
        0,
        0,
        0,
        0,
        6,
        6,
        6,
        0,
        0,
        0,
        0,
        0,
        0,
        0,
        0,
        0,
        0,
        0,
        0,
        0,
        0,
        0,
        0,
        0,
        0,
        0,
        0,
        0,
        0,
        0,
        0,
        0,
        0,
        0,
        0,
        0,
        0,
        6,
        6,
        6,
        0,
        0,
        0,
        0,
        0,
        0,
        0,
        0,
        0,
        0,
        0,
        0,
        0,
        0,
        0,
        0,
        0,
        0,
        0,
        0,
        0,
        0,
        0,
        0,
        0,
        0,
        0,
        0,
        0,
        0,
        0,
        0,
        0,
        0,
        0,
        0,
        0,
        6,
        6,
        6,
        0,
        0,
        0,
        0,
        0,
        0,
        0,
        0,
        0,
        0,
        0,
        0,
        0,
        0,
        0,
        0,
        0,
        0,
        0,
        0,
        0,
        0,
        0,
        0,
        0,
        0,
        0,
        0,
        0,
        0,
        0,
        0,
        0,
        0,
        0,
        0,
        0,
        0,
        0,
        0,
        0,
        0,
        0,
        0,
        0,
        0,
        0,
        0,
        0,
        0,
        0,
        0,
        0,
        0,
        0,
        0,
        0,
        0,
        0,
        0,
        0,
        0,
        0,
        0,
        0,
        0,
        0,
        0,
        0,
        0,
        0,
        0,
        0,
        0,
        0,
        0,
        0,
        0,
        0,
        0,
        0,
        0,
        0,
        0,
        0,
        0,
        0,
        0,
        0,
        0,
        0,
        0,
        0,
        0,
        0,
        0,
        0,
        0,
        0,
        0,
        0,
        0,
        0,
        0,
        0,
        0,
        0,
        0,
        0,
        0,
        0,
        0,
        0,
        0,
        0,
        0,
        0,
        0,
        0,
        0,
        0,
        0,
        0,
        0,
        0,
        0,
        0,
        0,
        0,
        0,
        0,
        0,
        0,
        0,
        0,
        0,
        0,
        0,
        0,
        0,
        0,
        0,
        0,
        0,
        0,
        0,
        0,
        0,
        0,
        0,
        0,
        0,
        0,
        0,
        0,
        0,
        0,
        0,
        0,
        0,
        0,
        0,
        0,
        0,
        0,
        0,
        0,
        0,
        0,
        0,
        0,
        0,
        0,
        0,
        0,
        0,
        0,
        0,
        0,
        0,
        0,
        0,
        0,
        0,
        0,
        0,
        0,
        0,
        0,
        0,
        0,
        0,
        0,
        0,
        0,
        0,
        0,
        0,
        0,
        0,
        0,
        0,
        0,
        0,
        0,
        0,
        0,
        0,
        0,
        0,
        0,
        0,
        0,
        0,
        0,
        0,
        0,
        0,
        0,
        0,
        0,
        0,
        0,
        0,
        0,
        0,
        0,
        0,
        0,
        0,
        0,
        0,
        0,
        0,
        0,
        0,
        0,
        0,
        0,
        0,
        0,
        0,
        0,
        0,
        0,
        0,
        0,
        0,
        0,
        0,
        0,
        0,
        0,
        0,
        0,
        0,
        0,
        0,
        0,
        0,
        0,
        0,
        0,
        0,
        0,
        0,
        0,
        0,
        0,
        0,
        0,
        0,
        0,
        0,
        0,
        0,
        0,
        0,
        0,
        0,
        0,
        0,
        0,
        0,
        0,
        0,
        0,
        0,
        0,
        0,
        0,
        0,
        0,
        0,
        0,
        0,
        0,
        0,
        0,
        0,
        0,
        0,
        0,
        0,
        0,
        0,
        0,
        0,
        0,
        0,
        0,
        0,
        0,
        0,
        0,
        0,
        0,
        0,
        0,
        0,
        0,
        0,
        0,
        0,
        0,
        0,
        0,
        0,
        0,
        0,
        0,
        0,
        0,
        0,
        0,
        0,
        0,
        0,
        0,
        0,
        0,
        0,
        0,
        0,
        0,
        0,
        0,
        0,
        0,
        0,
        0,
        0,
        0,
        0,
        0,
        0,
        0,
        0,
        0,
        0,
        0,
        0,
        0,
        0,
        0,
        6,
        6,
        6,
        6,
        0,
        0,
        0,
        0,
        0,
        0,
        0,
        0,
        0,
        0,
        0,
        0,
        0,
        0,
        0,
        0,
        0,
        0,
        0,
        0,
        0,
        0,
        0,
        0,
        0,
        0,
        0,
        0,
        0,
        0,
        0,
        0,
        0,
        0,
        0,
        0,
        0,
        0,
        0,
        0,
        0,
        0,
        0,
        0,
        0,
        0,
        0,
        0,
        0,
        0,
        0,
        0,
        0,
        0,
        0,
        0,
        0,
        0,
        0,
        0,
        0,
        0,
        0,
        0,
        0,
        0,
        6,
        6,
        6,
        6,
        0,
        0,
        0,
        0,
        0,
        0,
        0,
        0,
        0,
        0,
        0,
        0,
        0,
        0,
        0,
        0,
        0,
        0,
        0,
        0,
        0,
        0,
        0,
        0,
        0,
        0,
        0,
        0,
        0,
        0,
        0,
        0,
        0,
        0,
        0,
        0,
        0,
        0,
        0,
        0,
        0,
        0,
        0,
        0,
        0,
        0,
        0,
        0,
        0,
        0,
        0,
        0,
        0,
        0,
        0,
        0,
        0,
        0,
        0,
        0,
        0,
        0,
        0,
        0,
        0,
        0,
        0,
        0,
        0,
        0,
        0,
        0,
        0,
        0,
        0,
        0,
        0,
        0,
        0,
        0,
        0,
        0,
        0,
        0,
        0,
        0,
        0,
        0,
        0,
        0,
        0,
        0,
        0,
        0,
        0,
        0,
        0,
        0,
        0,
        0,
        0,
        0,
        0,
        0,
        0,
        0,
        0,
        0,
        0,
        0,
        0,
        0,
        0,
        0,
        0,
        0,
        0,
        0,
        0,
        0,
        0,
        0,
        0,
        0,
        0,
        0,
        0,
        0,
        0,
        0,
        0,
        0,
        0,
        0,
        0,
        0,
        0,
        0,
        0,
        0,
        0,
        0,
        0,
        0,
        0,
        0,
        0,
        0,
        0,
        0,
        0,
        0,
        0,
        0,
        0,
        0,
        0,
        0,
        0,
        0,
        0,
        0,
        0,
        0,
        0,
        0,
        0,
        0,
        0,
        0,
        0,
        0,
        0,
        0,
        0,
        0,
        0,
        0,
        0,
        0,
        0,
        0,
        0,
        0,
        0,
        0,
        0,
        0,
        0,
        0,
        0,
        0,
        0,
        0,
        0,
        0,
        0,
        0,
        0,
        0,
        0,
        0,
        0,
        0,
        0,
        0,
        0,
        0,
        0,
        0,
        0,
        0,
        0,
        0,
        0,
        0,
        0,
        0,
        0,
        0,
        0,
        0,
        0,
        0,
        0,
        0,
        0,
        0,
        0,
        0,
        0,
        0,
        0,
        0,
        0,
        0,
        0,
        0,
        0,
        0,
        0,
        0,
        0
      ],
      "height": 28,
      "id": 2,
      "name": "decor",
      "opacity": 1,
      "type": "tilelayer",
      "visible": true,
      "width": 40,
      "x": 0,
      "y": 0
    },
    {
      "data": [
        1,
        1,
        1,
        1,
        1,
        1,
        1,
        1,
        1,
        1,
        1,
        1,
        1,
        1,
        1,
        1,
        1,
        1,
        1,
        1,
        1,
        1,
        1,
        1,
        1,
        1,
        1,
        1,
        1,
        1,
        1,
        1,
        1,
        1,
        1,
        1,
        1,
        1,
        1,
        1,
        1,
        0,
        0,
        0,
        0,
        0,
        0,
        0,
        0,
        0,
        0,
        0,
        0,
        0,
        0,
        0,
        0,
        0,
        0,
        0,
        0,
        0,
        0,
        0,
        0,
        0,
        0,
        0,
        0,
        0,
        0,
        0,
        0,
        0,
        0,
        0,
        0,
        0,
        0,
        1,
        1,
        0,
        1,
        1,
        1,
        1,
        1,
        1,
        1,
        1,
        1,
        1,
        1,
        0,
        0,
        0,
        0,
        0,
        0,
        0,
        0,
        0,
        0,
        0,
        0,
        0,
        0,
        1,
        1,
        1,
        1,
        1,
        1,
        1,
        1,
        1,
        1,
        1,
        0,
        1,
        1,
        0,
        1,
        1,
        1,
        1,
        1,
        1,
        1,
        1,
        1,
        1,
        1,
        0,
        0,
        0,
        0,
        0,
        0,
        0,
        0,
        0,
        0,
        0,
        0,
        0,
        0,
        1,
        1,
        1,
        1,
        1,
        1,
        1,
        1,
        1,
        1,
        1,
        0,
        1,
        1,
        0,
        1,
        1,
        1,
        1,
        1,
        1,
        1,
        1,
        1,
        1,
        1,
        0,
        0,
        0,
        0,
        0,
        0,
        0,
        0,
        0,
        0,
        0,
        0,
        0,
        0,
        1,
        1,
        1,
        1,
        1,
        1,
        1,
        1,
        1,
        1,
        1,
        0,
        1,
        1,
        0,
        1,
        1,
        1,
        1,
        1,
        1,
        1,
        1,
        1,
        1,
        1,
        0,
        0,
        0,
        0,
        0,
        0,
        0,
        0,
        0,
        0,
        0,
        0,
        0,
        0,
        1,
        1,
        1,
        1,
        1,
        1,
        1,
        1,
        1,
        1,
        1,
        0,
        1,
        1,
        0,
        1,
        1,
        1,
        0,
        0,
        0,
        0,
        0,
        0,
        0,
        0,
        0,
        0,
        0,
        0,
        0,
        0,
        0,
        0,
        0,
        0,
        0,
        0,
        0,
        0,
        0,
        0,
        0,
        0,
        0,
        0,
        0,
        0,
        1,
        1,
        1,
        0,
        1,
        1,
        0,
        1,
        1,
        1,
        0,
        0,
        0,
        0,
        0,
        0,
        0,
        0,
        0,
        0,
        0,
        0,
        0,
        0,
        0,
        0,
        0,
        0,
        0,
        0,
        0,
        0,
        0,
        0,
        0,
        0,
        0,
        0,
        0,
        0,
        1,
        1,
        1,
        0,
        1,
        1,
        0,
        1,
        1,
        1,
        0,
        0,
        0,
        0,
        0,
        0,
        0,
        0,
        0,
        0,
        0,
        0,
        1,
        1,
        1,
        1,
        0,
        0,
        0,
        0,
        0,
        0,
        0,
        0,
        0,
        0,
        0,
        0,
        0,
        0,
        1,
        1,
        1,
        0,
        1,
        1,
        0,
        1,
        1,
        1,
        0,
        0,
        0,
        0,
        0,
        0,
        0,
        0,
        0,
        0,
        0,
        0,
        1,
        1,
        1,
        1,
        0,
        0,
        0,
        0,
        0,
        0,
        0,
        0,
        0,
        0,
        0,
        0,
        0,
        0,
        1,
        1,
        1,
        0,
        1,
        1,
        0,
        0,
        0,
        0,
        1,
        1,
        1,
        0,
        0,
        0,
        0,
        0,
        0,
        0,
        0,
        0,
        1,
        1,
        1,
        1,
        0,
        0,
        0,
        1,
        1,
        1,
        1,
        0,
        0,
        0,
        0,
        1,
        1,
        1,
        1,
        1,
        1,
        0,
        1,
        1,
        0,
        0,
        0,
        0,
        1,
        1,
        1,
        0,
        0,
        0,
        0,
        0,
        0,
        0,
        0,
        0,
        0,
        0,
        0,
        0,
        0,
        0,
        0,
        1,
        1,
        1,
        1,
        0,
        0,
        0,
        0,
        1,
        1,
        1,
        0,
        0,
        0,
        0,
        1,
        1,
        0,
        0,
        0,
        0,
        1,
        1,
        1,
        0,
        0,
        0,
        0,
        0,
        0,
        0,
        0,
        0,
        0,
        0,
        0,
        0,
        0,
        0,
        0,
        1,
        1,
        1,
        1,
        0,
        0,
        0,
        0,
        1,
        1,
        1,
        0,
        0,
        0,
        0,
        1,
        1,
        0,
        0,
        0,
        0,
        1,
        1,
        1,
        0,
        0,
        0,
        0,
        0,
        0,
        0,
        0,
        0,
        0,
        0,
        0,
        0,
        0,
        0,
        0,
        0,
        0,
        0,
        0,
        0,
        0,
        0,
        0,
        1,
        1,
        1,
        0,
        0,
        0,
        0,
        1,
        1,
        0,
        0,
        0,
        0,
        0,
        0,
        0,
        0,
        0,
        0,
        0,
        0,
        0,
        0,
        0,
        0,
        0,
        0,
        0,
        0,
        0,
        0,
        0,
        0,
        0,
        0,
        0,
        0,
        0,
        0,
        0,
        0,
        0,
        0,
        0,
        0,
        0,
        0,
        1,
        1,
        0,
        0,
        0,
        0,
        0,
        0,
        0,
        0,
        0,
        0,
        0,
        0,
        1,
        1,
        1,
        0,
        0,
        0,
        0,
        0,
        0,
        0,
        0,
        1,
        1,
        1,
        1,
        0,
        0,
        0,
        0,
        0,
        0,
        0,
        0,
        0,
        0,
        0,
        1,
        1,
        0,
        0,
        0,
        0,
        0,
        0,
        0,
        0,
        0,
        0,
        0,
        0,
        1,
        1,
        1,
        0,
        0,
        0,
        0,
        0,
        0,
        0,
        0,
        1,
        1,
        1,
        1,
        0,
        0,
        0,
        0,
        0,
        0,
        0,
        0,
        0,
        0,
        0,
        1,
        1,
        0,
        0,
        0,
        0,
        0,
        0,
        0,
        0,
        0,
        0,
        0,
        0,
        1,
        1,
        1,
        0,
        0,
        0,
        0,
        0,
        0,
        0,
        0,
        1,
        1,
        1,
        1,
        0,
        0,
        0,
        0,
        0,
        0,
        0,
        0,
        0,
        0,
        0,
        1,
        1,
        0,
        0,
        0,
        0,
        0,
        0,
        0,
        1,
        1,
        1,
        1,
        0,
        0,
        0,
        0,
        0,
        0,
        0,
        0,
        0,
        0,
        0,
        0,
        0,
        0,
        0,
        0,
        1,
        1,
        1,
        1,
        0,
        0,
        0,
        0,
        0,
        0,
        0,
        1,
        1,
        0,
        0,
        0,
        0,
        0,
        0,
        0,
        1,
        1,
        1,
        1,
        0,
        0,
        0,
        0,
        0,
        0,
        0,
        0,
        0,
        0,
        0,
        0,
        0,
        0,
        0,
        0,
        1,
        1,
        1,
        1,
        0,
        0,
        0,
        0,
        0,
        0,
        0,
        1,
        1,
        0,
        0,
        1,
        1,
        1,
        1,
        0,
        1,
        1,
        1,
        1,
        0,
        0,
        0,
        0,
        0,
        0,
        0,
        0,
        0,
        0,
        0,
        0,
        0,
        0,
        0,
        0,
        1,
        1,
        1,
        1,
        0,
        0,
        0,
        0,
        0,
        0,
        0,
        1,
        1,
        0,
        0,
        0,
        0,
        0,
        0,
        0,
        0,
        0,
        0,
        0,
        0,
        0,
        0,
        0,
        0,
        0,
        0,
        0,
        0,
        0,
        0,
        0,
        0,
        0,
        0,
        0,
        0,
        0,
        0,
        0,
        0,
        1,
        1,
        1,
        1,
        0,
        0,
        1,
        1,
        0,
        0,
        0,
        0,
        0,
        0,
        0,
        0,
        0,
        0,
        0,
        0,
        0,
        0,
        0,
        0,
        0,
        0,
        0,
        0,
        0,
        0,
        0,
        0,
        0,
        0,
        0,
        0,
        0,
        0,
        0,
        0,
        0,
        0,
        0,
        0,
        0,
        0,
        1,
        1,
        0,
        0,
        0,
        0,
        0,
        0,
        0,
        0,
        0,
        0,
        0,
        0,
        0,
        0,
        0,
        0,
        0,
        0,
        0,
        0,
        0,
        0,
        0,
        0,
        0,
        0,
        0,
        0,
        0,
        0,
        0,
        0,
        0,
        0,
        0,
        0,
        0,
        0,
        1,
        1,
        0,
        0,
        0,
        0,
        0,
        0,
        0,
        0,
        0,
        0,
        0,
        0,
        0,
        0,
        0,
        0,
        0,
        0,
        0,
        0,
        0,
        0,
        0,
        0,
        0,
        0,
        0,
        0,
        0,
        0,
        0,
        0,
        0,
        0,
        0,
        0,
        0,
        0,
        1,
        1,
        0,
        0,
        0,
        0,
        0,
        0,
        0,
        0,
        0,
        0,
        0,
        0,
        0,
        0,
        0,
        0,
        0,
        0,
        0,
        0,
        0,
        0,
        0,
        0,
        0,
        0,
        0,
        0,
        0,
        0,
        0,
        0,
        0,
        0,
        0,
        0,
        0,
        0,
        1,
        1,
        0,
        0,
        0,
        0,
        0,
        0,
        0,
        0,
        0,
        0,
        0,
        0,
        0,
        0,
        0,
        0,
        0,
        0,
        0,
        0,
        0,
        0,
        0,
        0,
        0,
        0,
        0,
        0,
        0,
        0,
        0,
        0,
        0,
        0,
        0,
        0,
        0,
        0,
        1,
        1,
        1,
        1,
        1,
        1,
        1,
        1,
        1,
        1,
        1,
        1,
        1,
        1,
        1,
        1,
        1,
        1,
        1,
        1,
        1,
        1,
        1,
        1,
        1,
        1,
        1,
        1,
        1,
        1,
        1,
        1,
        1,
        1,
        1,
        1,
        1,
        1,
        1,
        1,
        1
      ],
      "height": 28,
      "id": 3,
      "name": "collision",
      "opacity": 1,
      "type": "tilelayer",
      "visible": false,
      "width": 40,
      "x": 0,
      "y": 0
    },
    {
      "id": 5,
      "name": "obstacles",
      "opacity": 1,
      "type": "objectgroup",
      "visible": true,
      "x": 0,
      "y": 0,
      "objects": []
    },
    {
      "id": 6,
      "name": "portals",
      "opacity": 1,
      "type": "objectgroup",
      "visible": true,
      "x": 0,
      "y": 0,
      "objects": []
    },
    {
      "id": 7,
      "name": "decor",
      "opacity": 1,
      "type": "objectgroup",
      "visible": true,
      "x": 0,
      "y": 0,
      "objects": []
    },
    {
      "id": 8,
      "name": "npcs",
      "opacity": 1,
      "type": "objectgroup",
      "visible": true,
      "x": 0,
      "y": 0,
      "objects": [
        {
          "id": 1,
          "name": "prontera_dungeon_guide",
          "type": "npc",
          "x": 694,
          "y": 549,
          "width": 48,
          "height": 64,
          "properties": [
            {
              "name": "npcId",
              "type": "string",
              "value": "prontera_dungeon_guide"
            },
            {
              "name": "npcType",
              "type": "string",
              "value": "dungeon"
            },
            {
              "name": "label",
              "type": "string",
              "value": "Dungeon Guide"
            },
            {
              "name": "facing",
              "type": "string",
              "value": "down"
            },
            {
              "name": "spriteKey",
              "type": "string",
              "value": ""
            },
            {
              "name": "configJson",
              "type": "string",
              "value": "{\"floors\":[\"dun_f1\",\"dun_f2\",\"dun_f3\",\"dun_f4\",\"dun_f5\"]}"
            }
          ]
        },
        {
          "id": 2,
          "name": "prontera_kafra",
          "type": "npc",
          "x": 504,
          "y": 432,
          "width": 48,
          "height": 64,
          "properties": [
            {
              "name": "npcId",
              "type": "string",
              "value": "prontera_kafra"
            },
            {
              "name": "npcType",
              "type": "string",
              "value": "storage"
            },
            {
              "name": "label",
              "type": "string",
              "value": "Kafra"
            },
            {
              "name": "facing",
              "type": "string",
              "value": "down"
            },
            {
              "name": "spriteKey",
              "type": "string",
              "value": ""
            },
            {
              "name": "configJson",
              "type": "string",
              "value": "{}"
            }
          ]
        },
        {
          "id": 3,
          "name": "prontera_save",
          "type": "npc",
          "x": 535,
          "y": 347,
          "width": 48,
          "height": 64,
          "properties": [
            {
              "name": "npcId",
              "type": "string",
              "value": "prontera_save"
            },
            {
              "name": "npcType",
              "type": "string",
              "value": "save"
            },
            {
              "name": "label",
              "type": "string",
              "value": "Save Point"
            },
            {
              "name": "facing",
              "type": "string",
              "value": "down"
            },
            {
              "name": "spriteKey",
              "type": "string",
              "value": ""
            },
            {
              "name": "configJson",
              "type": "string",
              "value": "{}"
            }
          ]
        },
        {
          "id": 4,
          "name": "prontera_job_master",
          "type": "npc",
          "x": 422,
          "y": 41,
          "width": 48,
          "height": 64,
          "properties": [
            {
              "name": "npcId",
              "type": "string",
              "value": "prontera_job_master"
            },
            {
              "name": "npcType",
              "type": "string",
              "value": "job_master"
            },
            {
              "name": "label",
              "type": "string",
              "value": "Job Master"
            },
            {
              "name": "facing",
              "type": "string",
              "value": "down"
            },
            {
              "name": "spriteKey",
              "type": "string",
              "value": ""
            },
            {
              "name": "configJson",
              "type": "string",
              "value": "{\"offers\":[{\"jobId\":\"swordman\",\"zenyCost\":0,\"fromJobId\":\"novice\",\"requiredJobLevel\":10,\"requiredBaseLevel\":1}]}"
            }
          ]
        },
        {
          "id": 5,
          "name": "prontera_healer",
          "type": "npc",
          "x": 511,
          "y": 508,
          "width": 48,
          "height": 64,
          "properties": [
            {
              "name": "npcId",
              "type": "string",
              "value": "prontera_healer"
            },
            {
              "name": "npcType",
              "type": "string",
              "value": "healer"
            },
            {
              "name": "label",
              "type": "string",
              "value": "Healer"
            },
            {
              "name": "facing",
              "type": "string",
              "value": "down"
            },
            {
              "name": "spriteKey",
              "type": "string",
              "value": ""
            },
            {
              "name": "configJson",
              "type": "string",
              "value": "{\"zenyCost\":0}"
            }
          ]
        },
        {
          "id": 6,
          "name": "prontera_warp",
          "type": "npc",
          "x": 751,
          "y": 419,
          "width": 48,
          "height": 64,
          "properties": [
            {
              "name": "npcId",
              "type": "string",
              "value": "prontera_warp"
            },
            {
              "name": "npcType",
              "type": "string",
              "value": "teleport"
            },
            {
              "name": "label",
              "type": "string",
              "value": "Warp Agent"
            },
            {
              "name": "facing",
              "type": "string",
              "value": "down"
            },
            {
              "name": "spriteKey",
              "type": "string",
              "value": ""
            },
            {
              "name": "configJson",
              "type": "string",
              "value": "{\"destinations\":[{\"x\":480,\"y\":320,\"label\":\"Prontera Field 01\",\"map_id\":\"prt_fild01\"},{\"x\":160,\"y\":160,\"label\":\"Field (dev)\",\"map_id\":\"field_01\"},{\"x\":768,\"y\":112,\"label\":\"Prontera Culvert\",\"map_id\":\"prt_sewb1\"}]}"
            }
          ]
        },
        {
          "id": 7,
          "name": "prontera_tool_dealer",
          "type": "npc",
          "x": 53,
          "y": 485,
          "width": 48,
          "height": 64,
          "properties": [
            {
              "name": "npcId",
              "type": "string",
              "value": "prontera_tool_dealer"
            },
            {
              "name": "npcType",
              "type": "string",
              "value": "shop"
            },
            {
              "name": "label",
              "type": "string",
              "value": "Tool Dealer"
            },
            {
              "name": "facing",
              "type": "string",
              "value": "down"
            },
            {
              "name": "spriteKey",
              "type": "string",
              "value": ""
            },
            {
              "name": "configJson",
              "type": "string",
              "value": "{\"buys\":[{\"price\":2,\"itemId\":\"jellopy\"},{\"price\":3,\"itemId\":\"fluff\"},{\"price\":8,\"itemId\":\"chrysalis\"},{\"price\":26,\"itemId\":\"worm_peeling\"},{\"price\":4,\"itemId\":\"sticky_mucus\"},{\"price\":200,\"itemId\":\"phracon\"},{\"price\":9,\"itemId\":\"red_herb\"},{\"price\":25,\"itemId\":\"iron_ore\"},{\"price\":39,\"itemId\":\"rat_tail\"},{\"price\":27,\"itemId\":\"animal_skin\"},{\"price\":15,\"itemId\":\"feather\"},{\"price\":60,\"itemId\":\"monsters_feed\"},{\"price\":8,\"itemId\":\"tooth_of_bat\"},{\"price\":200,\"itemId\":\"grape\"}],\"stock\":[{\"price\":50,\"itemId\":\"red_potion\"}]}"
            }
          ]
        },
        {
          "id": 8,
          "name": "prontera_weapon_dealer",
          "type": "npc",
          "x": 42,
          "y": 342,
          "width": 48,
          "height": 64,
          "properties": [
            {
              "name": "npcId",
              "type": "string",
              "value": "prontera_weapon_dealer"
            },
            {
              "name": "npcType",
              "type": "string",
              "value": "shop"
            },
            {
              "name": "label",
              "type": "string",
              "value": "Weapon Dealer"
            },
            {
              "name": "facing",
              "type": "string",
              "value": "down"
            },
            {
              "name": "spriteKey",
              "type": "string",
              "value": ""
            },
            {
              "name": "configJson",
              "type": "string",
              "value": "{\"stock\":[{\"price\":1200,\"itemId\":\"knife\"},{\"price\":1600,\"itemId\":\"sword\"},{\"price\":2400,\"itemId\":\"falchion\"},{\"price\":2900,\"itemId\":\"blade\"},{\"price\":3200,\"itemId\":\"rapier\"},{\"price\":3500,\"itemId\":\"saber\"},{\"price\":1000,\"itemId\":\"rod\"},{\"price\":2000,\"itemId\":\"wand\"},{\"price\":5000,\"itemId\":\"staff\"},{\"price\":2500,\"itemId\":\"bow\"},{\"price\":8000,\"itemId\":\"great_bow\"},{\"price\":15000,\"itemId\":\"composite_bow\"},{\"price\":2400,\"itemId\":\"mace\"},{\"price\":2900,\"itemId\":\"club\"},{\"price\":4500,\"itemId\":\"smasher\"},{\"price\":2800,\"itemId\":\"axe\"},{\"price\":5500,\"itemId\":\"battle_axe\"},{\"price\":2000,\"itemId\":\"main_gauche\"},{\"price\":2400,\"itemId\":\"dagger\"},{\"price\":3200,\"itemId\":\"stiletto\"}]}"
            }
          ]
        },
        {
          "id": 9,
          "name": "prontera_armor_dealer",
          "type": "npc",
          "x": 140,
          "y": 483,
          "width": 48,
          "height": 64,
          "properties": [
            {
              "name": "npcId",
              "type": "string",
              "value": "prontera_armor_dealer"
            },
            {
              "name": "npcType",
              "type": "string",
              "value": "shop"
            },
            {
              "name": "label",
              "type": "string",
              "value": "Armor Dealer"
            },
            {
              "name": "facing",
              "type": "string",
              "value": "down"
            },
            {
              "name": "spriteKey",
              "type": "string",
              "value": ""
            },
            {
              "name": "configJson",
              "type": "string",
              "value": "{\"stock\":[{\"price\":10,\"itemId\":\"cotton_shirt\"},{\"price\":500,\"itemId\":\"adventurers_suit\"},{\"price\":500,\"itemId\":\"silk_robe\"},{\"price\":1200,\"itemId\":\"wooden_mail\"},{\"price\":2500,\"itemId\":\"coat\"},{\"price\":120,\"itemId\":\"cap\"},{\"price\":150,\"itemId\":\"goggles\"},{\"price\":100,\"itemId\":\"flu_mask\"},{\"price\":12000,\"itemId\":\"helm\"},{\"price\":800,\"itemId\":\"wooden_shield\"},{\"price\":600,\"itemId\":\"buckler\"},{\"price\":300,\"itemId\":\"hooded_mantle\"},{\"price\":800,\"itemId\":\"mantle\"},{\"price\":150,\"itemId\":\"sandals\"},{\"price\":400,\"itemId\":\"shoes\"},{\"price\":200,\"itemId\":\"clip\"},{\"price\":180,\"itemId\":\"glove\"}]}"
            }
          ]
        }
      ]
    }
  ]
}
