{
  "compressionlevel": -1,
  "infinite": false,
  "orientation": "orthogonal",
  "renderorder": "right-down",
  "tiledversion": "1.10.2",
  "tileheight": 32,
  "tilewidth": 32,
  "type": "map",
  "version": "1.10",
  "width": 40,
  "height": 30,
  "tilesets": [
    {
      "columns": 4,
      "firstgid": 1,
      "image": "tiles.png",
      "imagewidth": 128,
      "imageheight": 32,
      "margin": 0,
      "name": "tiles",
      "spacing": 0,
      "tilecount": 4,
      "tileheight": 32,
      "tilewidth": 32
    }
  ],
  "nextlayerid": 9,
  "nextobjectid": 35,
  "layers": [
    {
      "data": [
        1,
        1,
        1,
        1,
        1,
        1,
        1,
        1,
        1,
        1,
        1,
        1,
        1,
        1,
        1,
        1,
        1,
        1,
        1,
        1,
        1,
        1,
        1,
        1,
        1,
        1,
        1,
        1,
        1,
        1,
        1,
        1,
        1,
        1,
        1,
        1,
        1,
        1,
        1,
        1,
        1,
        2,
        3,
        2,
        3,
        2,
        3,
        2,
        3,
        2,
        3,
        2,
        3,
        2,
        3,
        2,
        3,
        2,
        3,
        2,
        3,
        2,
        3,
        2,
        3,
        2,
        3,
        2,
        3,
        2,
        3,
        2,
        3,
        2,
        3,
        2,
        3,
        2,
        3,
        1,
        1,
        3,
        2,
        3,
        2,
        3,
        2,
        3,
        2,
        3,
        2,
        3,
        2,
        3,
        2,
        3,
        2,
        3,
        2,
        3,
        2,
        3,
        2,
        3,
        2,
        3,
        2,
        3,
        2,
        3,
        2,
        3,
        2,
        3,
        2,
        3,
        2,
        3,
        2,
        1,
        1,
        2,
        3,
        2,
        3,
        2,
        3,
        2,
        3,
        2,
        3,
        2,
        3,
        2,
        3,
        2,
        3,
        2,
        3,
        2,
        3,
        2,
        3,
        2,
        3,
        2,
        3,
        2,
        3,
        2,
        3,
        2,
        3,
        2,
        3,
        2,
        3,
        2,
        3,
        1,
        1,
        3,
        2,
        3,
        2,
        3,
        2,
        3,
        2,
        3,
        2,
        3,
        2,
        3,
        2,
        3,
        2,
        3,
        2,
        3,
        2,
        3,
        2,
        3,
        2,
        3,
        2,
        3,
        2,
        3,
        2,
        3,
        2,
        3,
        2,
        3,
        2,
        3,
        2,
        1,
        1,
        2,
        3,
        2,
        3,
        2,
        3,
        2,
        3,
        2,
        3,
        2,
        3,
        2,
        3,
        2,
        3,
        2,
        3,
        2,
        3,
        2,
        3,
        2,
        3,
        2,
        3,
        2,
        3,
        2,
        3,
        2,
        3,
        2,
        3,
        2,
        3,
        2,
        3,
        1,
        1,
        3,
        2,
        3,
        2,
        3,
        2,
        3,
        1,
        1,
        1,
        3,
        2,
        3,
        2,
        3,
        2,
        3,
        2,
        3,
        2,
        3,
        2,
        3,
        2,
        3,
        2,
        3,
        2,
        3,
        2,
        3,
        2,
        3,
        2,
        3,
        2,
        3,
        2,
        1,
        1,
        2,
        3,
        2,
        3,
        2,
        3,
        2,
        1,
        1,
        1,
        2,
        3,
        2,
        3,
        2,
        3,
        2,
        3,
        2,
        3,
        2,
        3,
        2,
        3,
        2,
        3,
        2,
        3,
        2,
        3,
        2,
        3,
        2,
        3,
        2,
        3,
        2,
        3,
        1,
        1,
        3,
        2,
        3,
        2,
        3,
        2,
        3,
        2,
        3,
        2,
        3,
        2,
        3,
        2,
        3,
        2,
        3,
        2,
        3,
        2,
        3,
        2,
        3,
        2,
        3,
        2,
        3,
        1,
        1,
        2,
        3,
        2,
        3,
        2,
        3,
        2,
        3,
        2,
        1,
        1,
        2,
        3,
        2,
        3,
        2,
        3,
        2,
        3,
        2,
        3,
        2,
        3,
        2,
        3,
        2,
        3,
        2,
        3,
        2,
        3,
        2,
        3,
        2,
        3,
        2,
        3,
        2,
        1,
        1,
        3,
        2,
        3,
        2,
        3,
        2,
        3,
        2,
        3,
        1,
        1,
        3,
        2,
        3,
        2,
        3,
        2,
        3,
        2,
        3,
        2,
        3,
        2,
        3,
        2,
        3,
        2,
        3,
        2,
        3,
        2,
        3,
        2,
        3,
        2,
        3,
        2,
        3,
        1,
        1,
        2,
        3,
        2,
        3,
        2,
        3,
        2,
        3,
        2,
        1,
        1,
        2,
        3,
        2,
        3,
        2,
        3,
        2,
        3,
        2,
        3,
        2,
        3,
        2,
        3,
        2,
        3,
        2,
        3,
        2,
        3,
        2,
        3,
        2,
        3,
        2,
        3,
        2,
        3,
        2,
        3,
        2,
        3,
        2,
        3,
        2,
        3,
        2,
        3,
        1,
        1,
        3,
        2,
        3,
        2,
        3,
        2,
        3,
        2,
        3,
        2,
        3,
        2,
        3,
        2,
        3,
        2,
        3,
        2,
        3,
        2,
        3,
        2,
        3,
        2,
        3,
        2,
        3,
        2,
        3,
        2,
        3,
        2,
        3,
        2,
        3,
        2,
        3,
        2,
        1,
        1,
        2,
        3,
        2,
        3,
        2,
        3,
        2,
        3,
        2,
        3,
        2,
        3,
        2,
        3,
        2,
        3,
        2,
        3,
        2,
        3,
        2,
        3,
        2,
        3,
        2,
        3,
        2,
        3,
        2,
        3,
        2,
        3,
        2,
        3,
        2,
        3,
        2,
        3,
        1,
        1,
        3,
        2,
        3,
        2,
        3,
        2,
        3,
        2,
        3,
        2,
        3,
        2,
        3,
        2,
        3,
        2,
        3,
        2,
        3,
        2,
        3,
        2,
        3,
        2,
        3,
        2,
        3,
        2,
        3,
        2,
        3,
        2,
        3,
        2,
        3,
        2,
        3,
        2,
        1,
        1,
        2,
        3,
        2,
        3,
        2,
        3,
        2,
        3,
        2,
        3,
        2,
        3,
        2,
        3,
        2,
        3,
        2,
        3,
        2,
        3,
        2,
        3,
        2,
        3,
        2,
        3,
        2,
        3,
        2,
        3,
        2,
        3,
        2,
        3,
        2,
        3,
        2,
        3,
        1,
        1,
        3,
        2,
        3,
        2,
        3,
        2,
        3,
        2,
        3,
        2,
        3,
        2,
        3,
        2,
        3,
        2,
        3,
        2,
        3,
        2,
        3,
        2,
        3,
        2,
        3,
        2,
        3,
        2,
        3,
        2,
        3,
        2,
        3,
        2,
        3,
        2,
        3,
        2,
        1,
        1,
        2,
        3,
        2,
        3,
        2,
        3,
        2,
        3,
        2,
        3,
        2,
        3,
        2,
        3,
        2,
        3,
        2,
        3,
        2,
        3,
        2,
        3,
        2,
        3,
        2,
        3,
        2,
        3,
        2,
        3,
        2,
        3,
        2,
        3,
        2,
        3,
        2,
        3,
        1,
        1,
        3,
        2,
        3,
        2,
        3,
        2,
        3,
        2,
        3,
        2,
        3,
        2,
        3,
        2,
        3,
        2,
        3,
        2,
        3,
        2,
        3,
        2,
        3,
        2,
        3,
        2,
        3,
        2,
        3,
        1,
        1,
        2,
        3,
        2,
        3,
        2,
        3,
        2,
        1,
        1,
        2,
        3,
        2,
        3,
        2,
        3,
        2,
        3,
        2,
        3,
        2,
        3,
        2,
        3,
        2,
        3,
        2,
        3,
        2,
        3,
        2,
        3,
        2,
        3,
        2,
        3,
        2,
        3,
        2,
        1,
        1,
        3,
        2,
        3,
        2,
        3,
        2,
        3,
        1,
        1,
        3,
        2,
        3,
        2,
        3,
        1,
        1,
        1,
        3,
        2,
        3,
        2,
        3,
        2,
        3,
        2,
        3,
        2,
        3,
        2,
        3,
        2,
        3,
        2,
        3,
        2,
        3,
        2,
        3,
        1,
        1,
        2,
        3,
        2,
        3,
        2,
        3,
        2,
        1,
        1,
        2,
        3,
        2,
        3,
        2,
        1,
        1,
        1,
        2,
        3,
        2,
        3,
        2,
        3,
        2,
        3,
        2,
        3,
        2,
        3,
        2,
        3,
        2,
        3,
        2,
        3,
        2,
        3,
        2,
        3,
        2,
        3,
        2,
        3,
        2,
        3,
        2,
        3,
        1,
        1,
        3,
        2,
        3,
        2,
        3,
        2,
        3,
        2,
        3,
        2,
        3,
        2,
        3,
        2,
        3,
        2,
        3,
        1,
        1,
        1,
        1,
        2,
        3,
        2,
        3,
        2,
        3,
        2,
        3,
        2,
        3,
        2,
        3,
        2,
        3,
        2,
        3,
        2,
        1,
        1,
        2,
        3,
        2,
        3,
        2,
        3,
        2,
        3,
        2,
        3,
        2,
        3,
        2,
        3,
        2,
        3,
        2,
        1,
        1,
        1,
        1,
        3,
        2,
        3,
        2,
        3,
        2,
        3,
        2,
        3,
        2,
        3,
        2,
        3,
        2,
        3,
        2,
        3,
        1,
        1,
        3,
        2,
        3,
        2,
        3,
        2,
        3,
        2,
        3,
        2,
        3,
        2,
        3,
        2,
        3,
        2,
        3,
        2,
        3,
        2,
        3,
        2,
        3,
        2,
        3,
        2,
        3,
        2,
        3,
        2,
        3,
        2,
        3,
        2,
        3,
        2,
        3,
        2,
        1,
        1,
        2,
        3,
        2,
        3,
        2,
        3,
        2,
        3,
        2,
        3,
        2,
        3,
        2,
        3,
        2,
        3,
        2,
        3,
        2,
        3,
        2,
        3,
        2,
        3,
        2,
        3,
        2,
        3,
        2,
        3,
        2,
        3,
        2,
        3,
        2,
        3,
        2,
        3,
        1,
        1,
        3,
        2,
        3,
        2,
        3,
        2,
        3,
        2,
        3,
        2,
        3,
        2,
        3,
        2,
        3,
        2,
        3,
        2,
        3,
        2,
        3,
        2,
        3,
        2,
        3,
        2,
        3,
        2,
        3,
        2,
        3,
        2,
        3,
        2,
        3,
        2,
        3,
        2,
        1,
        1,
        2,
        3,
        2,
        3,
        2,
        3,
        2,
        3,
        2,
        3,
        2,
        3,
        2,
        3,
        2,
        3,
        2,
        3,
        2,
        3,
        2,
        3,
        2,
        3,
        2,
        3,
        2,
        3,
        2,
        3,
        2,
        3,
        2,
        3,
        2,
        3,
        2,
        3,
        1,
        1,
        3,
        2,
        3,
        2,
        3,
        2,
        3,
        2,
        3,
        2,
        3,
        2,
        3,
        2,
        3,
        2,
        3,
        2,
        3,
        2,
        3,
        2,
        3,
        2,
        3,
        2,
        3,
        2,
        3,
        2,
        3,
        2,
        3,
        2,
        3,
        2,
        3,
        2,
        1,
        1,
        1,
        1,
        1,
        1,
        1,
        1,
        1,
        1,
        1,
        1,
        1,
        1,
        1,
        1,
        1,
        1,
        1,
        1,
        1,
        1,
        1,
        1,
        1,
        1,
        1,
        1,
        1,
        1,
        1,
        1,
        1,
        1,
        1,
        1,
        1,
        1,
        1,
        1,
        1
      ],
      "height": 30,
      "id": 1,
      "name": "ground",
      "opacity": 1,
      "type": "tilelayer",
      "visible": true,
      "width": 40,
      "x": 0,
      "y": 0
    },
    {
      "data": [
        1,
        1,
        1,
        1,
        1,
        1,
        1,
        1,
        1,
        1,
        1,
        1,
        1,
        1,
        1,
        1,
        1,
        1,
        1,
        1,
        1,
        1,
        1,
        1,
        1,
        1,
        1,
        1,
        1,
        1,
        1,
        1,
        1,
        1,
        1,
        1,
        1,
        1,
        1,
        1,
        1,
        0,
        0,
        0,
        0,
        0,
        0,
        0,
        0,
        0,
        0,
        0,
        0,
        0,
        0,
        0,
        0,
        0,
        0,
        0,
        0,
        0,
        0,
        0,
        0,
        0,
        0,
        0,
        0,
        0,
        0,
        0,
        0,
        0,
        0,
        0,
        0,
        0,
        0,
        1,
        1,
        0,
        0,
        0,
        0,
        0,
        0,
        0,
        0,
        0,
        0,
        0,
        0,
        0,
        0,
        0,
        0,
        0,
        0,
        0,
        0,
        0,
        0,
        0,
        0,
        0,
        0,
        0,
        0,
        0,
        0,
        0,
        0,
        0,
        0,
        0,
        0,
        0,
        0,
        1,
        1,
        0,
        0,
        0,
        0,
        0,
        0,
        0,
        0,
        0,
        0,
        0,
        0,
        0,
        0,
        0,
        0,
        0,
        0,
        0,
        0,
        0,
        0,
        0,
        0,
        0,
        0,
        0,
        0,
        0,
        0,
        0,
        0,
        0,
        0,
        0,
        0,
        0,
        0,
        1,
        1,
        0,
        0,
        0,
        0,
        0,
        0,
        0,
        0,
        0,
        0,
        0,
        0,
        0,
        0,
        0,
        0,
        0,
        0,
        0,
        0,
        0,
        0,
        0,
        0,
        0,
        0,
        0,
        0,
        0,
        0,
        0,
        0,
        0,
        0,
        0,
        0,
        0,
        0,
        1,
        1,
        0,
        0,
        0,
        0,
        0,
        0,
        0,
        0,
        0,
        0,
        0,
        0,
        0,
        0,
        0,
        0,
        0,
        0,
        0,
        0,
        0,
        0,
        0,
        0,
        0,
        0,
        0,
        0,
        0,
        0,
        0,
        0,
        0,
        0,
        0,
        0,
        0,
        0,
        1,
        1,
        0,
        0,
        0,
        0,
        0,
        0,
        0,
        1,
        1,
        1,
        0,
        0,
        0,
        0,
        0,
        0,
        0,
        0,
        0,
        0,
        0,
        0,
        0,
        0,
        0,
        0,
        0,
        0,
        0,
        0,
        0,
        0,
        0,
        0,
        0,
        0,
        0,
        0,
        1,
        1,
        0,
        0,
        0,
        0,
        0,
        0,
        0,
        1,
        1,
        1,
        0,
        0,
        0,
        0,
        0,
        0,
        0,
        0,
        0,
        0,
        0,
        0,
        0,
        0,
        0,
        0,
        0,
        0,
        0,
        0,
        0,
        0,
        0,
        0,
        0,
        0,
        0,
        0,
        1,
        1,
        0,
        0,
        0,
        0,
        0,
        0,
        0,
        0,
        0,
        0,
        0,
        0,
        0,
        0,
        0,
        0,
        0,
        0,
        0,
        0,
        0,
        0,
        0,
        0,
        0,
        0,
        0,
        1,
        1,
        0,
        0,
        0,
        0,
        0,
        0,
        0,
        0,
        0,
        1,
        1,
        0,
        0,
        0,
        0,
        0,
        0,
        0,
        0,
        0,
        0,
        0,
        0,
        0,
        0,
        0,
        0,
        0,
        0,
        0,
        0,
        0,
        0,
        0,
        0,
        0,
        0,
        0,
        1,
        1,
        0,
        0,
        0,
        0,
        0,
        0,
        0,
        0,
        0,
        1,
        1,
        0,
        0,
        0,
        0,
        0,
        0,
        0,
        0,
        0,
        0,
        0,
        0,
        0,
        0,
        0,
        0,
        0,
        0,
        0,
        0,
        0,
        0,
        0,
        0,
        0,
        0,
        0,
        1,
        1,
        0,
        0,
        0,
        0,
        0,
        0,
        0,
        0,
        0,
        1,
        1,
        0,
        0,
        0,
        0,
        0,
        0,
        0,
        0,
        0,
        0,
        0,
        0,
        0,
        0,
        0,
        0,
        0,
        0,
        0,
        0,
        0,
        0,
        0,
        0,
        0,
        0,
        0,
        0,
        0,
        0,
        0,
        0,
        0,
        0,
        0,
        0,
        0,
        0,
        1,
        1,
        0,
        0,
        0,
        0,
        0,
        0,
        0,
        0,
        0,
        0,
        0,
        0,
        0,
        0,
        0,
        0,
        0,
        0,
        0,
        0,
        0,
        0,
        0,
        0,
        0,
        0,
        0,
        0,
        0,
        0,
        0,
        0,
        0,
        0,
        0,
        0,
        0,
        0,
        1,
        1,
        0,
        0,
        0,
        0,
        0,
        0,
        0,
        0,
        0,
        0,
        0,
        0,
        0,
        0,
        0,
        0,
        0,
        0,
        0,
        0,
        0,
        0,
        0,
        0,
        0,
        0,
        0,
        0,
        0,
        0,
        0,
        0,
        0,
        0,
        0,
        0,
        0,
        0,
        1,
        1,
        0,
        0,
        0,
        0,
        0,
        0,
        0,
        0,
        0,
        0,
        0,
        0,
        0,
        0,
        0,
        0,
        0,
        0,
        0,
        0,
        0,
        0,
        0,
        0,
        0,
        0,
        0,
        0,
        0,
        0,
        0,
        0,
        0,
        0,
        0,
        0,
        0,
        0,
        1,
        1,
        0,
        0,
        0,
        0,
        0,
        0,
        0,
        0,
        0,
        0,
        0,
        0,
        0,
        0,
        0,
        0,
        0,
        0,
        0,
        0,
        0,
        0,
        0,
        0,
        0,
        0,
        0,
        0,
        0,
        0,
        0,
        0,
        0,
        0,
        0,
        0,
        0,
        0,
        1,
        1,
        0,
        0,
        0,
        0,
        0,
        0,
        0,
        0,
        0,
        0,
        0,
        0,
        0,
        0,
        0,
        0,
        0,
        0,
        0,
        0,
        0,
        0,
        0,
        0,
        0,
        0,
        0,
        0,
        0,
        0,
        0,
        0,
        0,
        0,
        0,
        0,
        0,
        0,
        1,
        1,
        0,
        0,
        0,
        0,
        0,
        0,
        0,
        0,
        0,
        0,
        0,
        0,
        0,
        0,
        0,
        0,
        0,
        0,
        0,
        0,
        0,
        0,
        0,
        0,
        0,
        0,
        0,
        0,
        0,
        0,
        0,
        0,
        0,
        0,
        0,
        0,
        0,
        0,
        1,
        1,
        0,
        0,
        0,
        0,
        0,
        0,
        0,
        0,
        0,
        0,
        0,
        0,
        0,
        0,
        0,
        0,
        0,
        0,
        0,
        0,
        0,
        0,
        0,
        0,
        0,
        0,
        0,
        0,
        0,
        1,
        1,
        0,
        0,
        0,
        0,
        0,
        0,
        0,
        1,
        1,
        0,
        0,
        0,
        0,
        0,
        0,
        0,
        0,
        0,
        0,
        0,
        0,
        0,
        0,
        0,
        0,
        0,
        0,
        0,
        0,
        0,
        0,
        0,
        0,
        0,
        0,
        0,
        0,
        0,
        1,
        1,
        0,
        0,
        0,
        0,
        0,
        0,
        0,
        1,
        1,
        0,
        0,
        0,
        0,
        0,
        1,
        1,
        1,
        0,
        0,
        0,
        0,
        0,
        0,
        0,
        0,
        0,
        0,
        0,
        0,
        0,
        0,
        0,
        0,
        0,
        0,
        0,
        0,
        0,
        1,
        1,
        0,
        0,
        0,
        0,
        0,
        0,
        0,
        1,
        1,
        0,
        0,
        0,
        0,
        0,
        1,
        1,
        1,
        0,
        0,
        0,
        0,
        0,
        0,
        0,
        0,
        0,
        0,
        0,
        0,
        0,
        0,
        0,
        0,
        0,
        0,
        0,
        0,
        0,
        0,
        0,
        0,
        0,
        0,
        0,
        0,
        0,
        0,
        1,
        1,
        0,
        0,
        0,
        0,
        0,
        0,
        0,
        0,
        0,
        0,
        0,
        0,
        0,
        0,
        0,
        0,
        0,
        1,
        1,
        1,
        1,
        0,
        0,
        0,
        0,
        0,
        0,
        0,
        0,
        0,
        0,
        0,
        0,
        0,
        0,
        0,
        0,
        0,
        1,
        1,
        0,
        0,
        0,
        0,
        0,
        0,
        0,
        0,
        0,
        0,
        0,
        0,
        0,
        0,
        0,
        0,
        0,
        1,
        1,
        1,
        1,
        0,
        0,
        0,
        0,
        0,
        0,
        0,
        0,
        0,
        0,
        0,
        0,
        0,
        0,
        0,
        0,
        0,
        1,
        1,
        0,
        0,
        0,
        0,
        0,
        0,
        0,
        0,
        0,
        0,
        0,
        0,
        0,
        0,
        0,
        0,
        0,
        0,
        0,
        0,
        0,
        0,
        0,
        0,
        0,
        0,
        0,
        0,
        0,
        0,
        0,
        0,
        0,
        0,
        0,
        0,
        0,
        0,
        1,
        1,
        0,
        0,
        0,
        0,
        0,
        0,
        0,
        0,
        0,
        0,
        0,
        0,
        0,
        0,
        0,
        0,
        0,
        0,
        0,
        0,
        0,
        0,
        0,
        0,
        0,
        0,
        0,
        0,
        0,
        0,
        0,
        0,
        0,
        0,
        0,
        0,
        0,
        0,
        1,
        1,
        0,
        0,
        0,
        0,
        0,
        0,
        0,
        0,
        0,
        0,
        0,
        0,
        0,
        0,
        0,
        0,
        0,
        0,
        0,
        0,
        0,
        0,
        0,
        0,
        0,
        0,
        0,
        0,
        0,
        0,
        0,
        0,
        0,
        0,
        0,
        0,
        0,
        0,
        1,
        1,
        0,
        0,
        0,
        0,
        0,
        0,
        0,
        0,
        0,
        0,
        0,
        0,
        0,
        0,
        0,
        0,
        0,
        0,
        0,
        0,
        0,
        0,
        0,
        0,
        0,
        0,
        0,
        0,
        0,
        0,
        0,
        0,
        0,
        0,
        0,
        0,
        0,
        0,
        1,
        1,
        0,
        0,
        0,
        0,
        0,
        0,
        0,
        0,
        0,
        0,
        0,
        0,
        0,
        0,
        0,
        0,
        0,
        0,
        0,
        0,
        0,
        0,
        0,
        0,
        0,
        0,
        0,
        0,
        0,
        0,
        0,
        0,
        0,
        0,
        0,
        0,
        0,
        0,
        1,
        1,
        1,
        1,
        1,
        1,
        1,
        1,
        1,
        1,
        1,
        1,
        1,
        1,
        1,
        1,
        1,
        1,
        1,
        1,
        1,
        1,
        1,
        1,
        1,
        1,
        1,
        1,
        1,
        1,
        1,
        1,
        1,
        1,
        1,
        1,
        1,
        1,
        1,
        1,
        1
      ],
      "height": 30,
      "id": 2,
      "name": "collision",
      "opacity": 1,
      "type": "tilelayer",
      "visible": false,
      "width": 40,
      "x": 0,
      "y": 0
    },
    {
      "id": 4,
      "name": "obstacles",
      "opacity": 1,
      "type": "objectgroup",
      "visible": true,
      "x": 0,
      "y": 0,
      "objects": [
        {
          "id": 1,
          "name": "obstacle_2",
          "type": "obstacle",
          "x": 32,
          "y": 0,
          "width": 32,
          "height": 32
        },
        {
          "id": 2,
          "name": "obstacle_3",
          "type": "obstacle",
          "x": 64,
          "y": 0,
          "width": 32,
          "height": 32
        },
        {
          "id": 3,
          "name": "obstacle_4",
          "type": "obstacle",
          "x": 96,
          "y": 0,
          "width": 32,
          "height": 32
        },
        {
          "id": 4,
          "name": "obstacle_5",
          "type": "obstacle",
          "x": 128,
          "y": 0,
          "width": 32,
          "height": 32
        },
        {
          "id": 5,
          "name": "obstacle_6",
          "type": "obstacle",
          "x": 160,
          "y": 0,
          "width": 32,
          "height": 32
        },
        {
          "id": 6,
          "name": "obstacle_7",
          "type": "obstacle",
          "x": 192,
          "y": 0,
          "width": 32,
          "height": 32
        },
        {
          "id": 7,
          "name": "obstacle_8",
          "type": "obstacle",
          "x": 224,
          "y": 0,
          "width": 32,
          "height": 32
        },
        {
          "id": 8,
          "name": "obstacle_9",
          "type": "obstacle",
          "x": 256,
          "y": 0,
          "width": 32,
          "height": 32
        },
        {
          "id": 9,
          "name": "obstacle_10",
          "type": "obstacle",
          "x": 288,
          "y": 0,
          "width": 32,
          "height": 32
        },
        {
          "id": 10,
          "name": "obstacle_11",
          "type": "obstacle",
          "x": 320,
          "y": 0,
          "width": 32,
          "height": 32
        },
        {
          "id": 11,
          "name": "obstacle_12",
          "type": "obstacle",
          "x": 352,
          "y": 0,
          "width": 32,
          "height": 32
        },
        {
          "id": 12,
          "name": "obstacle_13",
          "type": "obstacle",
          "x": 384,
          "y": 0,
          "width": 32,
          "height": 32
        },
        {
          "id": 13,
          "name": "obstacle_14",
          "type": "obstacle",
          "x": 416,
          "y": 0,
          "width": 32,
          "height": 32
        },
        {
          "id": 14,
          "name": "obstacle_15",
          "type": "obstacle",
          "x": 448,
          "y": 0,
          "width": 32,
          "height": 32
        },
        {
          "id": 15,
          "name": "obstacle_16",
          "type": "obstacle",
          "x": 480,
          "y": 0,
          "width": 32,
          "height": 32
        },
        {
          "id": 16,
          "name": "obstacle_17",
          "type": "obstacle",
          "x": 512,
          "y": 0,
          "width": 32,
          "height": 32
        },
        {
          "id": 17,
          "name": "obstacle_18",
          "type": "obstacle",
          "x": 544,
          "y": 0,
          "width": 32,
          "height": 32
        },
        {
          "id": 18,
          "name": "obstacle_19",
          "type": "obstacle",
          "x": 576,
          "y": 0,
          "width": 32,
          "height": 32
        },
        {
          "id": 19,
          "name": "obstacle_20",
          "type": "obstacle",
          "x": 608,
          "y": 0,
          "width": 32,
          "height": 32
        },
        {
          "id": 20,
          "name": "obstacle_21",
          "type": "obstacle",
          "x": 640,
          "y": 0,
          "width": 32,
          "height": 32
        },
        {
          "id": 21,
          "name": "obstacle_22",
          "type": "obstacle",
          "x": 672,
          "y": 0,
          "width": 32,
          "height": 32
        },
        {
          "id": 22,
          "name": "obstacle_23",
          "type": "obstacle",
          "x": 704,
          "y": 0,
          "width": 32,
          "height": 32
        },
        {
          "id": 23,
          "name": "obstacle_24",
          "type": "obstacle",
          "x": 736,
          "y": 0,
          "width": 32,
          "height": 32
        },
        {
          "id": 24,
          "name": "obstacle_25",
          "type": "obstacle",
          "x": 768,
          "y": 0,
          "width": 32,
          "height": 32
        },
        {
          "id": 25,
          "name": "obstacle_26",
          "type": "obstacle",
          "x": 800,
          "y": 0,
          "width": 32,
          "height": 32
        },
        {
          "id": 26,
          "name": "obstacle_27",
          "type": "obstacle",
          "x": 832,
          "y": 0,
          "width": 32,
          "height": 32
        },
        {
          "id": 27,
          "name": "obstacle_28",
          "type": "obstacle",
          "x": 864,
          "y": 0,
          "width": 32,
          "height": 32
        },
        {
          "id": 28,
          "name": "obstacle_29",
          "type": "obstacle",
          "x": 896,
          "y": 0,
          "width": 32,
          "height": 32
        },
        {
          "id": 29,
          "name": "obstacle_30",
          "type": "obstacle",
          "x": 928,
          "y": 0,
          "width": 32,
          "height": 32
        },
        {
          "id": 30,
          "name": "obstacle_31",
          "type": "obstacle",
          "x": 960,
          "y": 0,
          "width": 32,
          "height": 32
        },
        {
          "id": 31,
          "name": "obstacle_32",
          "type": "obstacle",
          "x": 992,
          "y": 0,
          "width": 32,
          "height": 32
        },
        {
          "id": 32,
          "name": "obstacle_33",
          "type": "obstacle",
          "x": 1024,
          "y": 0,
          "width": 32,
          "height": 32
        },
        {
          "id": 33,
          "name": "obstacle_34",
          "type": "obstacle",
          "x": 1056,
          "y": 0,
          "width": 32,
          "height": 32
        },
        {
          "id": 34,
          "name": "obstacle_35",
          "type": "obstacle",
          "x": 1088,
          "y": 0,
          "width": 32,
          "height": 32
        },
        {
          "id": 35,
          "name": "obstacle_36",
          "type": "obstacle",
          "x": 1120,
          "y": 0,
          "width": 32,
          "height": 32
        },
        {
          "id": 36,
          "name": "obstacle_37",
          "type": "obstacle",
          "x": 1152,
          "y": 0,
          "width": 32,
          "height": 32
        },
        {
          "id": 37,
          "name": "obstacle_38",
          "type": "obstacle",
          "x": 1184,
          "y": 0,
          "width": 32,
          "height": 32
        },
        {
          "id": 38,
          "name": "obstacle_39",
          "type": "obstacle",
          "x": 1216,
          "y": 0,
          "width": 32,
          "height": 32
        },
        {
          "id": 39,
          "name": "obstacle_40",
          "type": "obstacle",
          "x": 0,
          "y": 32,
          "width": 32,
          "height": 32
        },
        {
          "id": 40,
          "name": "obstacle_41",
          "type": "obstacle",
          "x": 1248,
          "y": 32,
          "width": 32,
          "height": 32
        },
        {
          "id": 41,
          "name": "obstacle_42",
          "type": "obstacle",
          "x": 0,
          "y": 64,
          "width": 32,
          "height": 32
        },
        {
          "id": 42,
          "name": "obstacle_43",
          "type": "obstacle",
          "x": 1248,
          "y": 64,
          "width": 32,
          "height": 32
        },
        {
          "id": 43,
          "name": "obstacle_44",
          "type": "obstacle",
          "x": 0,
          "y": 96,
          "width": 32,
          "height": 32
        },
        {
          "id": 44,
          "name": "obstacle_45",
          "type": "obstacle",
          "x": 1248,
          "y": 96,
          "width": 32,
          "height": 32
        },
        {
          "id": 45,
          "name": "obstacle_46",
          "type": "obstacle",
          "x": 0,
          "y": 128,
          "width": 32,
          "height": 32
        },
        {
          "id": 46,
          "name": "obstacle_47",
          "type": "obstacle",
          "x": 1248,
          "y": 128,
          "width": 32,
          "height": 32
        },
        {
          "id": 47,
          "name": "obstacle_48",
          "type": "obstacle",
          "x": 0,
          "y": 160,
          "width": 32,
          "height": 32
        },
        {
          "id": 48,
          "name": "obstacle_49",
          "type": "obstacle",
          "x": 1248,
          "y": 160,
          "width": 32,
          "height": 32
        },
        {
          "id": 49,
          "name": "obstacle_50",
          "type": "obstacle",
          "x": 0,
          "y": 192,
          "width": 32,
          "height": 32
        },
        {
          "id": 50,
          "name": "obstacle_51",
          "type": "obstacle",
          "x": 256,
          "y": 192,
          "width": 32,
          "height": 32
        },
        {
          "id": 51,
          "name": "obstacle_52",
          "type": "obstacle",
          "x": 288,
          "y": 192,
          "width": 32,
          "height": 32
        },
        {
          "id": 52,
          "name": "obstacle_53",
          "type": "obstacle",
          "x": 320,
          "y": 192,
          "width": 32,
          "height": 32
        },
        {
          "id": 53,
          "name": "obstacle_54",
          "type": "obstacle",
          "x": 1248,
          "y": 192,
          "width": 32,
          "height": 32
        },
        {
          "id": 54,
          "name": "obstacle_55",
          "type": "obstacle",
          "x": 0,
          "y": 224,
          "width": 32,
          "height": 32
        },
        {
          "id": 55,
          "name": "obstacle_56",
          "type": "obstacle",
          "x": 256,
          "y": 224,
          "width": 32,
          "height": 32
        },
        {
          "id": 56,
          "name": "obstacle_57",
          "type": "obstacle",
          "x": 288,
          "y": 224,
          "width": 32,
          "height": 32
        },
        {
          "id": 57,
          "name": "obstacle_58",
          "type": "obstacle",
          "x": 320,
          "y": 224,
          "width": 32,
          "height": 32
        },
        {
          "id": 58,
          "name": "obstacle_59",
          "type": "obstacle",
          "x": 1248,
          "y": 224,
          "width": 32,
          "height": 32
        },
        {
          "id": 59,
          "name": "obstacle_60",
          "type": "obstacle",
          "x": 0,
          "y": 256,
          "width": 32,
          "height": 32
        },
        {
          "id": 60,
          "name": "obstacle_61",
          "type": "obstacle",
          "x": 896,
          "y": 256,
          "width": 32,
          "height": 32
        },
        {
          "id": 61,
          "name": "obstacle_62",
          "type": "obstacle",
          "x": 928,
          "y": 256,
          "width": 32,
          "height": 32
        },
        {
          "id": 62,
          "name": "obstacle_63",
          "type": "obstacle",
          "x": 1248,
          "y": 256,
          "width": 32,
          "height": 32
        },
        {
          "id": 63,
          "name": "obstacle_64",
          "type": "obstacle",
          "x": 0,
          "y": 288,
          "width": 32,
          "height": 32
        },
        {
          "id": 64,
          "name": "obstacle_65",
          "type": "obstacle",
          "x": 896,
          "y": 288,
          "width": 32,
          "height": 32
        },
        {
          "id": 65,
          "name": "obstacle_66",
          "type": "obstacle",
          "x": 928,
          "y": 288,
          "width": 32,
          "height": 32
        },
        {
          "id": 66,
          "name": "obstacle_67",
          "type": "obstacle",
          "x": 1248,
          "y": 288,
          "width": 32,
          "height": 32
        },
        {
          "id": 67,
          "name": "obstacle_68",
          "type": "obstacle",
          "x": 0,
          "y": 320,
          "width": 32,
          "height": 32
        },
        {
          "id": 68,
          "name": "obstacle_69",
          "type": "obstacle",
          "x": 896,
          "y": 320,
          "width": 32,
          "height": 32
        },
        {
          "id": 69,
          "name": "obstacle_70",
          "type": "obstacle",
          "x": 928,
          "y": 320,
          "width": 32,
          "height": 32
        },
        {
          "id": 70,
          "name": "obstacle_71",
          "type": "obstacle",
          "x": 1248,
          "y": 320,
          "width": 32,
          "height": 32
        },
        {
          "id": 71,
          "name": "obstacle_72",
          "type": "obstacle",
          "x": 0,
          "y": 352,
          "width": 32,
          "height": 32
        },
        {
          "id": 72,
          "name": "obstacle_73",
          "type": "obstacle",
          "x": 1248,
          "y": 352,
          "width": 32,
          "height": 32
        },
        {
          "id": 73,
          "name": "obstacle_74",
          "type": "obstacle",
          "x": 0,
          "y": 384,
          "width": 32,
          "height": 32
        },
        {
          "id": 74,
          "name": "obstacle_75",
          "type": "obstacle",
          "x": 1248,
          "y": 384,
          "width": 32,
          "height": 32
        },
        {
          "id": 75,
          "name": "obstacle_76",
          "type": "obstacle",
          "x": 0,
          "y": 416,
          "width": 32,
          "height": 32
        },
        {
          "id": 76,
          "name": "obstacle_77",
          "type": "obstacle",
          "x": 1248,
          "y": 416,
          "width": 32,
          "height": 32
        },
        {
          "id": 77,
          "name": "obstacle_78",
          "type": "obstacle",
          "x": 0,
          "y": 448,
          "width": 32,
          "height": 32
        },
        {
          "id": 78,
          "name": "obstacle_79",
          "type": "obstacle",
          "x": 1248,
          "y": 448,
          "width": 32,
          "height": 32
        },
        {
          "id": 79,
          "name": "obstacle_80",
          "type": "obstacle",
          "x": 0,
          "y": 480,
          "width": 32,
          "height": 32
        },
        {
          "id": 80,
          "name": "obstacle_81",
          "type": "obstacle",
          "x": 1248,
          "y": 480,
          "width": 32,
          "height": 32
        },
        {
          "id": 81,
          "name": "obstacle_82",
          "type": "obstacle",
          "x": 0,
          "y": 512,
          "width": 32,
          "height": 32
        },
        {
          "id": 82,
          "name": "obstacle_83",
          "type": "obstacle",
          "x": 1248,
          "y": 512,
          "width": 32,
          "height": 32
        },
        {
          "id": 83,
          "name": "obstacle_84",
          "type": "obstacle",
          "x": 0,
          "y": 544,
          "width": 32,
          "height": 32
        },
        {
          "id": 84,
          "name": "obstacle_85",
          "type": "obstacle",
          "x": 1248,
          "y": 544,
          "width": 32,
          "height": 32
        },
        {
          "id": 85,
          "name": "obstacle_86",
          "type": "obstacle",
          "x": 0,
          "y": 576,
          "width": 32,
          "height": 32
        },
        {
          "id": 86,
          "name": "obstacle_87",
          "type": "obstacle",
          "x": 960,
          "y": 576,
          "width": 32,
          "height": 32
        },
        {
          "id": 87,
          "name": "obstacle_88",
          "type": "obstacle",
          "x": 992,
          "y": 576,
          "width": 32,
          "height": 32
        },
        {
          "id": 88,
          "name": "obstacle_89",
          "type": "obstacle",
          "x": 1248,
          "y": 576,
          "width": 32,
          "height": 32
        },
        {
          "id": 89,
          "name": "obstacle_90",
          "type": "obstacle",
          "x": 0,
          "y": 608,
          "width": 32,
          "height": 32
        },
        {
          "id": 90,
          "name": "obstacle_91",
          "type": "obstacle",
          "x": 960,
          "y": 608,
          "width": 32,
          "height": 32
        },
        {
          "id": 91,
          "name": "obstacle_92",
          "type": "obstacle",
          "x": 992,
          "y": 608,
          "width": 32,
          "height": 32
        },
        {
          "id": 92,
          "name": "obstacle_93",
          "type": "obstacle",
          "x": 1248,
          "y": 608,
          "width": 32,
          "height": 32
        },
        {
          "id": 93,
          "name": "obstacle_94",
          "type": "obstacle",
          "x": 0,
          "y": 640,
          "width": 32,
          "height": 32
        },
        {
          "id": 94,
          "name": "obstacle_95",
          "type": "obstacle",
          "x": 192,
          "y": 640,
          "width": 32,
          "height": 32
        },
        {
          "id": 95,
          "name": "obstacle_96",
          "type": "obstacle",
          "x": 224,
          "y": 640,
          "width": 32,
          "height": 32
        },
        {
          "id": 96,
          "name": "obstacle_97",
          "type": "obstacle",
          "x": 256,
          "y": 640,
          "width": 32,
          "height": 32
        },
        {
          "id": 97,
          "name": "obstacle_98",
          "type": "obstacle",
          "x": 960,
          "y": 640,
          "width": 32,
          "height": 32
        },
        {
          "id": 98,
          "name": "obstacle_99",
          "type": "obstacle",
          "x": 992,
          "y": 640,
          "width": 32,
          "height": 32
        },
        {
          "id": 99,
          "name": "obstacle_100",
          "type": "obstacle",
          "x": 1248,
          "y": 640,
          "width": 32,
          "height": 32
        },
        {
          "id": 100,
          "name": "obstacle_101",
          "type": "obstacle",
          "x": 0,
          "y": 672,
          "width": 32,
          "height": 32
        },
        {
          "id": 101,
          "name": "obstacle_102",
          "type": "obstacle",
          "x": 192,
          "y": 672,
          "width": 32,
          "height": 32
        },
        {
          "id": 102,
          "name": "obstacle_103",
          "type": "obstacle",
          "x": 224,
          "y": 672,
          "width": 32,
          "height": 32
        },
        {
          "id": 103,
          "name": "obstacle_104",
          "type": "obstacle",
          "x": 256,
          "y": 672,
          "width": 32,
          "height": 32
        },
        {
          "id": 104,
          "name": "obstacle_105",
          "type": "obstacle",
          "x": 1248,
          "y": 672,
          "width": 32,
          "height": 32
        },
        {
          "id": 105,
          "name": "obstacle_106",
          "type": "obstacle",
          "x": 0,
          "y": 704,
          "width": 32,
          "height": 32
        },
        {
          "id": 106,
          "name": "obstacle_107",
          "type": "obstacle",
          "x": 576,
          "y": 704,
          "width": 32,
          "height": 32
        },
        {
          "id": 107,
          "name": "obstacle_108",
          "type": "obstacle",
          "x": 608,
          "y": 704,
          "width": 32,
          "height": 32
        },
        {
          "id": 108,
          "name": "obstacle_109",
          "type": "obstacle",
          "x": 640,
          "y": 704,
          "width": 32,
          "height": 32
        },
        {
          "id": 109,
          "name": "obstacle_110",
          "type": "obstacle",
          "x": 672,
          "y": 704,
          "width": 32,
          "height": 32
        },
        {
          "id": 110,
          "name": "obstacle_111",
          "type": "obstacle",
          "x": 1248,
          "y": 704,
          "width": 32,
          "height": 32
        },
        {
          "id": 111,
          "name": "obstacle_112",
          "type": "obstacle",
          "x": 0,
          "y": 736,
          "width": 32,
          "height": 32
        },
        {
          "id": 112,
          "name": "obstacle_113",
          "type": "obstacle",
          "x": 576,
          "y": 736,
          "width": 32,
          "height": 32
        },
        {
          "id": 113,
          "name": "obstacle_114",
          "type": "obstacle",
          "x": 608,
          "y": 736,
          "width": 32,
          "height": 32
        },
        {
          "id": 114,
          "name": "obstacle_115",
          "type": "obstacle",
          "x": 640,
          "y": 736,
          "width": 32,
          "height": 32
        },
        {
          "id": 115,
          "name": "obstacle_116",
          "type": "obstacle",
          "x": 672,
          "y": 736,
          "width": 32,
          "height": 32
        },
        {
          "id": 116,
          "name": "obstacle_117",
          "type": "obstacle",
          "x": 1248,
          "y": 736,
          "width": 32,
          "height": 32
        },
        {
          "id": 117,
          "name": "obstacle_118",
          "type": "obstacle",
          "x": 0,
          "y": 768,
          "width": 32,
          "height": 32
        },
        {
          "id": 118,
          "name": "obstacle_119",
          "type": "obstacle",
          "x": 1248,
          "y": 768,
          "width": 32,
          "height": 32
        },
        {
          "id": 119,
          "name": "obstacle_120",
          "type": "obstacle",
          "x": 0,
          "y": 800,
          "width": 32,
          "height": 32
        },
        {
          "id": 120,
          "name": "obstacle_121",
          "type": "obstacle",
          "x": 1248,
          "y": 800,
          "width": 32,
          "height": 32
        },
        {
          "id": 121,
          "name": "obstacle_122",
          "type": "obstacle",
          "x": 0,
          "y": 832,
          "width": 32,
          "height": 32
        },
        {
          "id": 122,
          "name": "obstacle_123",
          "type": "obstacle",
          "x": 1248,
          "y": 832,
          "width": 32,
          "height": 32
        },
        {
          "id": 123,
          "name": "obstacle_124",
          "type": "obstacle",
          "x": 0,
          "y": 864,
          "width": 32,
          "height": 32
        },
        {
          "id": 124,
          "name": "obstacle_125",
          "type": "obstacle",
          "x": 1248,
          "y": 864,
          "width": 32,
          "height": 32
        },
        {
          "id": 125,
          "name": "obstacle_126",
          "type": "obstacle",
          "x": 0,
          "y": 896,
          "width": 32,
          "height": 32
        },
        {
          "id": 126,
          "name": "obstacle_127",
          "type": "obstacle",
          "x": 1248,
          "y": 896,
          "width": 32,
          "height": 32
        },
        {
          "id": 127,
          "name": "obstacle_128",
          "type": "obstacle",
          "x": 32,
          "y": 928,
          "width": 32,
          "height": 32
        },
        {
          "id": 128,
          "name": "obstacle_129",
          "type": "obstacle",
          "x": 64,
          "y": 928,
          "width": 32,
          "height": 32
        },
        {
          "id": 129,
          "name": "obstacle_130",
          "type": "obstacle",
          "x": 96,
          "y": 928,
          "width": 32,
          "height": 32
        },
        {
          "id": 130,
          "name": "obstacle_131",
          "type": "obstacle",
          "x": 128,
          "y": 928,
          "width": 32,
          "height": 32
        },
        {
          "id": 131,
          "name": "obstacle_132",
          "type": "obstacle",
          "x": 160,
          "y": 928,
          "width": 32,
          "height": 32
        },
        {
          "id": 132,
          "name": "obstacle_133",
          "type": "obstacle",
          "x": 192,
          "y": 928,
          "width": 32,
          "height": 32
        },
        {
          "id": 133,
          "name": "obstacle_134",
          "type": "obstacle",
          "x": 224,
          "y": 928,
          "width": 32,
          "height": 32
        },
        {
          "id": 134,
          "name": "obstacle_135",
          "type": "obstacle",
          "x": 256,
          "y": 928,
          "width": 32,
          "height": 32
        },
        {
          "id": 135,
          "name": "obstacle_136",
          "type": "obstacle",
          "x": 288,
          "y": 928,
          "width": 32,
          "height": 32
        },
        {
          "id": 136,
          "name": "obstacle_137",
          "type": "obstacle",
          "x": 320,
          "y": 928,
          "width": 32,
          "height": 32
        },
        {
          "id": 137,
          "name": "obstacle_138",
          "type": "obstacle",
          "x": 352,
          "y": 928,
          "width": 32,
          "height": 32
        },
        {
          "id": 138,
          "name": "obstacle_139",
          "type": "obstacle",
          "x": 384,
          "y": 928,
          "width": 32,
          "height": 32
        },
        {
          "id": 139,
          "name": "obstacle_140",
          "type": "obstacle",
          "x": 416,
          "y": 928,
          "width": 32,
          "height": 32
        },
        {
          "id": 140,
          "name": "obstacle_141",
          "type": "obstacle",
          "x": 448,
          "y": 928,
          "width": 32,
          "height": 32
        },
        {
          "id": 141,
          "name": "obstacle_142",
          "type": "obstacle",
          "x": 480,
          "y": 928,
          "width": 32,
          "height": 32
        },
        {
          "id": 142,
          "name": "obstacle_143",
          "type": "obstacle",
          "x": 512,
          "y": 928,
          "width": 32,
          "height": 32
        },
        {
          "id": 143,
          "name": "obstacle_144",
          "type": "obstacle",
          "x": 544,
          "y": 928,
          "width": 32,
          "height": 32
        },
        {
          "id": 144,
          "name": "obstacle_145",
          "type": "obstacle",
          "x": 576,
          "y": 928,
          "width": 32,
          "height": 32
        },
        {
          "id": 145,
          "name": "obstacle_146",
          "type": "obstacle",
          "x": 608,
          "y": 928,
          "width": 32,
          "height": 32
        },
        {
          "id": 146,
          "name": "obstacle_147",
          "type": "obstacle",
          "x": 640,
          "y": 928,
          "width": 32,
          "height": 32
        },
        {
          "id": 147,
          "name": "obstacle_148",
          "type": "obstacle",
          "x": 672,
          "y": 928,
          "width": 32,
          "height": 32
        },
        {
          "id": 148,
          "name": "obstacle_149",
          "type": "obstacle",
          "x": 704,
          "y": 928,
          "width": 32,
          "height": 32
        },
        {
          "id": 149,
          "name": "obstacle_150",
          "type": "obstacle",
          "x": 736,
          "y": 928,
          "width": 32,
          "height": 32
        },
        {
          "id": 150,
          "name": "obstacle_151",
          "type": "obstacle",
          "x": 768,
          "y": 928,
          "width": 32,
          "height": 32
        },
        {
          "id": 151,
          "name": "obstacle_152",
          "type": "obstacle",
          "x": 800,
          "y": 928,
          "width": 32,
          "height": 32
        },
        {
          "id": 152,
          "name": "obstacle_153",
          "type": "obstacle",
          "x": 832,
          "y": 928,
          "width": 32,
          "height": 32
        },
        {
          "id": 153,
          "name": "obstacle_154",
          "type": "obstacle",
          "x": 864,
          "y": 928,
          "width": 32,
          "height": 32
        },
        {
          "id": 154,
          "name": "obstacle_155",
          "type": "obstacle",
          "x": 896,
          "y": 928,
          "width": 32,
          "height": 32
        },
        {
          "id": 155,
          "name": "obstacle_156",
          "type": "obstacle",
          "x": 928,
          "y": 928,
          "width": 32,
          "height": 32
        },
        {
          "id": 156,
          "name": "obstacle_157",
          "type": "obstacle",
          "x": 960,
          "y": 928,
          "width": 32,
          "height": 32
        },
        {
          "id": 157,
          "name": "obstacle_158",
          "type": "obstacle",
          "x": 992,
          "y": 928,
          "width": 32,
          "height": 32
        },
        {
          "id": 158,
          "name": "obstacle_159",
          "type": "obstacle",
          "x": 1024,
          "y": 928,
          "width": 32,
          "height": 32
        },
        {
          "id": 159,
          "name": "obstacle_160",
          "type": "obstacle",
          "x": 1056,
          "y": 928,
          "width": 32,
          "height": 32
        },
        {
          "id": 160,
          "name": "obstacle_161",
          "type": "obstacle",
          "x": 1088,
          "y": 928,
          "width": 32,
          "height": 32
        },
        {
          "id": 161,
          "name": "obstacle_162",
          "type": "obstacle",
          "x": 1120,
          "y": 928,
          "width": 32,
          "height": 32
        },
        {
          "id": 162,
          "name": "obstacle_163",
          "type": "obstacle",
          "x": 1152,
          "y": 928,
          "width": 32,
          "height": 32
        },
        {
          "id": 163,
          "name": "obstacle_164",
          "type": "obstacle",
          "x": 1184,
          "y": 928,
          "width": 32,
          "height": 32
        },
        {
          "id": 164,
          "name": "obstacle_165",
          "type": "obstacle",
          "x": 1216,
          "y": 928,
          "width": 32,
          "height": 32
        }
      ]
    },
    {
      "id": 5,
      "name": "portals",
      "opacity": 1,
      "type": "objectgroup",
      "visible": true,
      "x": 0,
      "y": 0,
      "objects": []
    },
    {
      "id": 6,
      "name": "decor",
      "opacity": 1,
      "type": "objectgroup",
      "visible": true,
      "x": 0,
      "y": 0,
      "objects": [
        {
          "id": 100,
          "name": "tree",
          "type": "decor",
          "x": 96,
          "y": 96,
          "width": 128,
          "height": 128,
          "properties": [
            {
              "name": "assetId",
              "type": "string",
              "value": "tree"
            }
          ]
        },
        {
          "id": 101,
          "name": "tree_oak",
          "type": "decor",
          "x": 1088,
          "y": 128,
          "width": 128,
          "height": 128,
          "properties": [
            {
              "name": "assetId",
              "type": "string",
              "value": "tree_oak"
            }
          ]
        },
        {
          "id": 102,
          "name": "tree_pine",
          "type": "decor",
          "x": 1120,
          "y": 736,
          "width": 128,
          "height": 128,
          "properties": [
            {
              "name": "assetId",
              "type": "string",
              "value": "tree_pine"
            }
          ]
        },
        {
          "id": 103,
          "name": "tree",
          "type": "decor",
          "x": 128,
          "y": 768,
          "width": 128,
          "height": 128,
          "properties": [
            {
              "name": "assetId",
              "type": "string",
              "value": "tree"
            }
          ]
        },
        {
          "id": 104,
          "name": "bush",
          "type": "decor",
          "x": 320,
          "y": 160,
          "width": 128,
          "height": 128,
          "properties": [
            {
              "name": "assetId",
              "type": "string",
              "value": "bush"
            }
          ]
        },
        {
          "id": 105,
          "name": "bush",
          "type": "decor",
          "x": 896,
          "y": 192,
          "width": 128,
          "height": 128,
          "properties": [
            {
              "name": "assetId",
              "type": "string",
              "value": "bush"
            }
          ]
        },
        {
          "id": 106,
          "name": "bush",
          "type": "decor",
          "x": 256,
          "y": 640,
          "width": 128,
          "height": 128,
          "properties": [
            {
              "name": "assetId",
              "type": "string",
              "value": "bush"
            }
          ]
        },
        {
          "id": 107,
          "name": "bush",
          "type": "decor",
          "x": 960,
          "y": 640,
          "width": 128,
          "height": 128,
          "properties": [
            {
              "name": "assetId",
              "type": "string",
              "value": "bush"
            }
          ]
        }
      ]
    },
    {
      "id": 7,
      "name": "npcs",
      "opacity": 1,
      "type": "objectgroup",
      "visible": true,
      "x": 0,
      "y": 0,
      "objects": [
        {
          "id": 2,
          "name": "prt_fild01_warp",
          "type": "npc",
          "x": 456,
          "y": 848,
          "width": 48,
          "height": 64,
          "properties": [
            {
              "name": "npcId",
              "type": "string",
              "value": "prt_fild01_warp"
            },
            {
              "name": "npcType",
              "type": "string",
              "value": "teleport"
            },
            {
              "name": "label",
              "type": "string",
              "value": "Return Warp"
            },
            {
              "name": "facing",
              "type": "string",
              "value": "down"
            },
            {
              "name": "spriteKey",
              "type": "string",
              "value": ""
            },
            {
              "name": "configJson",
              "type": "string",
              "value": "{\"destinations\":[{\"x\":640,\"y\":360,\"label\":\"Prontera\",\"map_id\":\"prontera\"}],\"facing\":\"down\"}"
            }
          ]
        },
        {
          "id": 3,
          "name": "prt_fild01_kafra",
          "type": "npc",
          "x": 376,
          "y": 368,
          "width": 48,
          "height": 64,
          "properties": [
            {
              "name": "npcId",
              "type": "string",
              "value": "prt_fild01_kafra"
            },
            {
              "name": "npcType",
              "type": "string",
              "value": "storage"
            },
            {
              "name": "label",
              "type": "string",
              "value": "Kafra"
            },
            {
              "name": "facing",
              "type": "string",
              "value": "down"
            },
            {
              "name": "spriteKey",
              "type": "string",
              "value": ""
            },
            {
              "name": "configJson",
              "type": "string",
              "value": "{}"
            }
          ]
        }
      ]
    },
    {
      "id": 8,
      "name": "mob_spots",
      "opacity": 1,
      "type": "objectgroup",
      "visible": true,
      "x": 0,
      "y": 0,
      "objects": [
        {
          "id": 1,
          "name": "prt_fild01_spot_0",
          "type": "mob_spot",
          "x": 32,
          "y": 32,
          "width": 32,
          "height": 32,
          "properties": [
            {
              "name": "spotId",
              "type": "string",
              "value": "prt_fild01_spot_0"
            },
            {
              "name": "defId",
              "type": "string",
              "value": "small_poring"
            },
            {
              "name": "count",
              "type": "float",
              "value": 1
            },
            {
              "name": "spawnsPerMinute",
              "type": "float",
              "value": 10
            },
            {
              "name": "canLure",
              "type": "bool",
              "value": true
            },
            {
              "name": "lureRadius",
              "type": "float",
              "value": 48
            }
          ]
        },
        {
          "id": 2,
          "name": "prt_fild01_spot_1",
          "type": "mob_spot",
          "x": 960,
          "y": 64,
          "width": 32,
          "height": 32,
          "properties": [
            {
              "name": "spotId",
              "type": "string",
              "value": "prt_fild01_spot_1"
            },
            {
              "name": "defId",
              "type": "string",
              "value": "small_poring"
            },
            {
              "name": "count",
              "type": "float",
              "value": 1
            },
            {
              "name": "spawnsPerMinute",
              "type": "float",
              "value": 10
            },
            {
              "name": "canLure",
              "type": "bool",
              "value": true
            },
            {
              "name": "lureRadius",
              "type": "float",
              "value": 48
            }
          ]
        },
        {
          "id": 3,
          "name": "prt_fild01_spot_2",
          "type": "mob_spot",
          "x": 672,
          "y": 128,
          "width": 32,
          "height": 32,
          "properties": [
            {
              "name": "spotId",
              "type": "string",
              "value": "prt_fild01_spot_2"
            },
            {
              "name": "defId",
              "type": "string",
              "value": "small_poring"
            },
            {
              "name": "count",
              "type": "float",
              "value": 1
            },
            {
              "name": "spawnsPerMinute",
              "type": "float",
              "value": 10
            },
            {
              "name": "canLure",
              "type": "bool",
              "value": true
            },
            {
              "name": "lureRadius",
              "type": "float",
              "value": 48
            }
          ]
        },
        {
          "id": 4,
          "name": "prt_fild01_spot_3",
          "type": "mob_spot",
          "x": 672,
          "y": 192,
          "width": 32,
          "height": 32,
          "properties": [
            {
              "name": "spotId",
              "type": "string",
              "value": "prt_fild01_spot_3"
            },
            {
              "name": "defId",
              "type": "string",
              "value": "small_poring"
            },
            {
              "name": "count",
              "type": "float",
              "value": 1
            },
            {
              "name": "spawnsPerMinute",
              "type": "float",
              "value": 10
            },
            {
              "name": "canLure",
              "type": "bool",
              "value": true
            },
            {
              "name": "lureRadius",
              "type": "float",
              "value": 48
            }
          ]
        },
        {
          "id": 5,
          "name": "prt_fild01_spot_4",
          "type": "mob_spot",
          "x": 1056,
          "y": 256,
          "width": 32,
          "height": 32,
          "properties": [
            {
              "name": "spotId",
              "type": "string",
              "value": "prt_fild01_spot_4"
            },
            {
              "name": "defId",
              "type": "string",
              "value": "small_poring"
            },
            {
              "name": "count",
              "type": "float",
              "value": 1
            },
            {
              "name": "spawnsPerMinute",
              "type": "float",
              "value": 10
            },
            {
              "name": "canLure",
              "type": "bool",
              "value": true
            },
            {
              "name": "lureRadius",
              "type": "float",
              "value": 48
            }
          ]
        },
        {
          "id": 6,
          "name": "prt_fild01_spot_5",
          "type": "mob_spot",
          "x": 192,
          "y": 352,
          "width": 32,
          "height": 32,
          "properties": [
            {
              "name": "spotId",
              "type": "string",
              "value": "prt_fild01_spot_5"
            },
            {
              "name": "defId",
              "type": "string",
              "value": "small_poring"
            },
            {
              "name": "count",
              "type": "float",
              "value": 1
            },
            {
              "name": "spawnsPerMinute",
              "type": "float",
              "value": 10
            },
            {
              "name": "canLure",
              "type": "bool",
              "value": true
            },
            {
              "name": "lureRadius",
              "type": "float",
              "value": 48
            }
          ]
        },
        {
          "id": 7,
          "name": "prt_fild01_spot_6",
          "type": "mob_spot",
          "x": 608,
          "y": 416,
          "width": 32,
          "height": 32,
          "properties": [
            {
              "name": "spotId",
              "type": "string",
              "value": "prt_fild01_spot_6"
            },
            {
              "name": "defId",
              "type": "string",
              "value": "small_poring"
            },
            {
              "name": "count",
              "type": "float",
              "value": 1
            },
            {
              "name": "spawnsPerMinute",
              "type": "float",
              "value": 10
            },
            {
              "name": "canLure",
              "type": "bool",
              "value": true
            },
            {
              "name": "lureRadius",
              "type": "float",
              "value": 48
            }
          ]
        },
        {
          "id": 8,
          "name": "prt_fild01_spot_7",
          "type": "mob_spot",
          "x": 320,
          "y": 480,
          "width": 32,
          "height": 32,
          "properties": [
            {
              "name": "spotId",
              "type": "string",
              "value": "prt_fild01_spot_7"
            },
            {
              "name": "defId",
              "type": "string",
              "value": "small_poring"
            },
            {
              "name": "count",
              "type": "float",
              "value": 1
            },
            {
              "name": "spawnsPerMinute",
              "type": "float",
              "value": 10
            },
            {
              "name": "canLure",
              "type": "bool",
              "value": true
            },
            {
              "name": "lureRadius",
              "type": "float",
              "value": 48
            }
          ]
        },
        {
          "id": 9,
          "name": "prt_fild01_spot_8",
          "type": "mob_spot",
          "x": 32,
          "y": 544,
          "width": 32,
          "height": 32,
          "properties": [
            {
              "name": "spotId",
              "type": "string",
              "value": "prt_fild01_spot_8"
            },
            {
              "name": "defId",
              "type": "string",
              "value": "poring"
            },
            {
              "name": "count",
              "type": "float",
              "value": 1
            },
            {
              "name": "spawnsPerMinute",
              "type": "float",
              "value": 10
            },
            {
              "name": "canLure",
              "type": "bool",
              "value": true
            },
            {
              "name": "lureRadius",
              "type": "float",
              "value": 48
            }
          ]
        },
        {
          "id": 10,
          "name": "prt_fild01_spot_9",
          "type": "mob_spot",
          "x": 1024,
          "y": 576,
          "width": 32,
          "height": 32,
          "properties": [
            {
              "name": "spotId",
              "type": "string",
              "value": "prt_fild01_spot_9"
            },
            {
              "name": "defId",
              "type": "string",
              "value": "poring"
            },
            {
              "name": "count",
              "type": "float",
              "value": 1
            },
            {
              "name": "spawnsPerMinute",
              "type": "float",
              "value": 10
            },
            {
              "name": "canLure",
              "type": "bool",
              "value": true
            },
            {
              "name": "lureRadius",
              "type": "float",
              "value": 48
            }
          ]
        },
        {
          "id": 11,
          "name": "prt_fild01_spot_10",
          "type": "mob_spot",
          "x": 896,
          "y": 640,
          "width": 32,
          "height": 32,
          "properties": [
            {
              "name": "spotId",
              "type": "string",
              "value": "prt_fild01_spot_10"
            },
            {
              "name": "defId",
              "type": "string",
              "value": "poring"
            },
            {
              "name": "count",
              "type": "float",
              "value": 1
            },
            {
              "name": "spawnsPerMinute",
              "type": "float",
              "value": 10
            },
            {
              "name": "canLure",
              "type": "bool",
              "value": true
            },
            {
              "name": "lureRadius",
              "type": "float",
              "value": 48
            }
          ]
        },
        {
          "id": 12,
          "name": "prt_fild01_spot_11",
          "type": "mob_spot",
          "x": 896,
          "y": 704,
          "width": 32,
          "height": 32,
          "properties": [
            {
              "name": "spotId",
              "type": "string",
              "value": "prt_fild01_spot_11"
            },
            {
              "name": "defId",
              "type": "string",
              "value": "poring"
            },
            {
              "name": "count",
              "type": "float",
              "value": 1
            },
            {
              "name": "spawnsPerMinute",
              "type": "float",
              "value": 10
            },
            {
              "name": "canLure",
              "type": "bool",
              "value": true
            },
            {
              "name": "lureRadius",
              "type": "float",
              "value": 48
            }
          ]
        },
        {
          "id": 13,
          "name": "prt_fild01_spot_12",
          "type": "mob_spot",
          "x": 864,
          "y": 768,
          "width": 32,
          "height": 32,
          "properties": [
            {
              "name": "spotId",
              "type": "string",
              "value": "prt_fild01_spot_12"
            },
            {
              "name": "defId",
              "type": "string",
              "value": "small_poring"
            },
            {
              "name": "count",
              "type": "float",
              "value": 1
            },
            {
              "name": "spawnsPerMinute",
              "type": "float",
              "value": 10
            },
            {
              "name": "canLure",
              "type": "bool",
              "value": true
            },
            {
              "name": "lureRadius",
              "type": "float",
              "value": 48
            }
          ]
        },
        {
          "id": 14,
          "name": "prt_fild01_spot_13",
          "type": "mob_spot",
          "x": 1024,
          "y": 832,
          "width": 32,
          "height": 32,
          "properties": [
            {
              "name": "spotId",
              "type": "string",
              "value": "prt_fild01_spot_13"
            },
            {
              "name": "defId",
              "type": "string",
              "value": "small_poring"
            },
            {
              "name": "count",
              "type": "float",
              "value": 1
            },
            {
              "name": "spawnsPerMinute",
              "type": "float",
              "value": 10
            },
            {
              "name": "canLure",
              "type": "bool",
              "value": true
            },
            {
              "name": "lureRadius",
              "type": "float",
              "value": 48
            }
          ]
        }
      ]
    }
  ]
}
